;START_OF_HEADER
;HEADER_VERSION:0.1
;FLAVOR:Griffin
;GENERATOR.NAME:Cura_SteamEngine
;GENERATOR.VERSION:5.7.0
;GENERATOR.BUILD_DATE:2024-04-02
;TARGET_MACHINE.NAME:Ultimaker 3 Extended
;EXTRUDER_TRAIN.0.INITIAL_TEMPERATURE:200
;EXTRUDER_TRAIN.0.MATERIAL.VOLUME_USED:5452
;EXTRUDER_TRAIN.0.MATERIAL.GUID:506c9f0d-e3aa-4bd4-b2d2-23e2425b1aa9
;EXTRUDER_TRAIN.0.NOZZLE.DIAMETER:0.4
;EXTRUDER_TRAIN.0.NOZZLE.NAME:AA 0.4
;BUILD_PLATE.INITIAL_TEMPERATURE:60
;PRINT.TIME:3394
;PRINT.GROUPS:1
;PRINT.SIZE.MIN.X:9
;PRINT.SIZE.MIN.Y:6
;PRINT.SIZE.MIN.Z:0.2
;PRINT.SIZE.MAX.X:189.828
;PRINT.SIZE.MAX.Y:135.231
;PRINT.SIZE.MAX.Z:9.95
;SLICE_UUID:b9190fb9-484c-4e19-b852-ee0be1f2e445
;END_OF_HEADER
;Generated with Cura_SteamEngine 5.7.0
T0
M82 ;absolute extrusion mode

G92 E0
M190 S60
M109 S200
G0 F15000 X9 Y6 Z2
G280
G1 F1500 E-6.5
;LAYER_COUNT:66
;LAYER:0
M106 S255
M204 S1000
M205 X20 Y20
G1 F600 Z2.2
G0 F15000 X47.055 Y80.593 Z2.2
;TYPE:SKIRT
G1 F600 Z0.2
G1 F1500 E0
G1 F1350 X48.949 Y80.051 E0.0247
G1 X101.836 Y80.052 E0.68793
G1 X104.854 Y81.283 E0.7288
G1 X106.431 Y82.895 E0.75708
G1 X107.841 Y85.104 E0.78995
G1 X108.2 Y88.07 E0.82741
G1 X108.115 Y128.006 E1.32822
G1 X107.893 Y129.346 E1.34526
G1 X106.933 Y131.558 E1.3755
G1 X104.995 Y133.584 E1.41066
G1 X104.185 Y134.107 E1.42275
G1 X101.712 Y134.947 E1.4555
G1 X48.811 Y134.949 E2.1189
G1 X46.222 Y134.125 E2.15297
G1 X44.128 Y132.341 E2.18747
G1 X43.144 Y130.867 E2.20969
G1 X42.217 Y128.381 E2.24296
G1 X42.218 Y86.713 E2.7655
G1 X43.117 Y84.063 E2.80059
G1 X45.025 Y81.699 E2.83869
G1 X47.055 Y80.593 E2.86768
G0 F15000 X47.204 Y80.967
G1 F1350 X49.007 Y80.451 E2.89119
G1 X101.759 Y80.452 E3.55272
G1 X104.625 Y81.621 E3.59154
G1 X106.118 Y83.147 E3.61831
G1 X107.455 Y85.242 E3.64948
G1 X107.8 Y88.069 E3.68519
G1 X107.72 Y127.941 E4.1852
G1 X107.506 Y129.233 E4.20162
G1 X106.595 Y131.332 E4.23032
G1 X104.737 Y133.274 E4.26402
G1 X104.011 Y133.743 E4.27486
G1 X101.645 Y134.547 E4.3062
G1 X48.872 Y134.549 E4.96799
G1 X46.421 Y133.769 E5.00025
G1 X44.43 Y132.073 E5.03305
G1 X43.503 Y130.684 E5.05399
G1 X42.617 Y128.308 E5.08579
G1 X42.618 Y86.78 E5.60656
G1 X43.474 Y84.257 E5.63998
G1 X45.286 Y82.012 E5.67615
G1 X47.204 Y80.967 E5.70355
G0 F15000 X47.353 Y81.341
G1 F1350 X49.065 Y80.851 E5.72588
G1 X101.682 Y80.852 E6.38571
G1 X104.396 Y81.959 E6.42247
G1 X105.805 Y83.399 E6.44773
G1 X107.069 Y85.38 E6.4772
G1 X107.4 Y88.068 E6.51117
G1 X107.325 Y127.876 E7.01037
G1 X107.119 Y129.12 E7.02619
G1 X106.257 Y131.106 E7.05334
G1 X104.479 Y132.964 E7.08559
G1 X103.837 Y133.379 E7.09517
G1 X101.578 Y134.147 E7.12509
G1 X48.933 Y134.149 E7.78528
G1 X46.618 Y133.412 E7.81575
G1 X44.734 Y131.807 E7.84679
G1 X43.862 Y130.501 E7.86648
G1 X43.017 Y128.235 E7.89681
G1 X43.018 Y86.847 E8.41583
G1 X43.831 Y84.451 E8.44756
G1 X45.547 Y82.325 E8.48182
G1 X47.353 Y81.341 E8.50761
G0 F15000 X47.502 Y81.715
G1 F1350 X49.123 Y81.251 E8.52875
G1 X101.605 Y81.252 E9.1869
G1 X104.167 Y82.297 E9.2216
G1 X105.492 Y83.651 E9.24535
G1 X106.683 Y85.518 E9.27312
G1 X107 Y88.067 E9.30534
G1 X106.93 Y127.811 E9.80374
G1 X106.732 Y129.007 E9.81894
G1 X105.918 Y130.882 E9.84458
G1 X104.224 Y132.653 E9.87531
G1 X103.663 Y133.015 E9.88368
G1 X101.511 Y133.747 E9.91219
G1 X48.994 Y133.749 E10.57077
G1 X46.817 Y133.056 E10.59942
G1 X45.036 Y131.539 E10.62876
G1 X44.221 Y130.318 E10.64717
G1 X43.417 Y128.162 E10.67602
G1 X43.418 Y86.913 E11.1933
G1 X44.187 Y84.646 E11.22332
G1 X45.808 Y82.638 E11.25568
G1 X47.502 Y81.715 E11.27988
G0 F15000 X47.651 Y82.089
G1 F1350 X49.181 Y81.651 E11.29983
G1 X101.528 Y81.652 E11.95629
G1 X103.938 Y82.635 E11.98892
G1 X105.179 Y83.903 E12.01117
G1 X106.297 Y85.656 E12.03725
G1 X106.6 Y88.066 E12.06771
G1 X106.535 Y127.746 E12.56531
G1 X106.345 Y128.894 E12.5799
G1 X105.579 Y130.658 E12.60402
G1 X103.969 Y132.342 E12.63324
G1 X103.489 Y132.651 E12.64039
G1 X101.444 Y133.347 E12.66748
G1 X49.055 Y133.349 E13.32446
G1 X47.014 Y132.699 E13.35132
G1 X45.34 Y131.273 E13.3789
G1 X44.58 Y130.135 E13.39606
G1 X43.817 Y128.089 E13.42344
G1 X43.818 Y86.98 E13.93897
G1 X44.544 Y84.84 E13.96731
G1 X46.069 Y82.951 E13.99775
G1 X47.651 Y82.089 E14.02034
G0 F15000 X47.8 Y82.463
G1 F1350 X49.239 Y82.051 E14.03911
G1 X101.451 Y82.052 E14.69387
G1 X103.709 Y82.973 E14.72445
G1 X104.866 Y84.155 E14.74519
G1 X105.911 Y85.794 E14.76957
G1 X106.2 Y88.065 E14.79828
G1 X106.14 Y127.681 E15.29508
G1 X105.958 Y128.781 E15.30906
G1 X105.24 Y130.434 E15.33166
G1 X103.68 Y132.066 E15.35997
G1 X103.36 Y132.272 E15.36475
G1 X101.377 Y132.947 E15.39101
G1 X49.116 Y132.949 E16.04639
G1 X47.211 Y132.342 E16.07146
G1 X45.644 Y131.007 E16.09728
G1 X44.939 Y129.952 E16.11319
G1 X44.217 Y128.016 E16.1391
G1 X44.218 Y87.047 E16.65287
G1 X44.901 Y85.034 E16.67952
G1 X46.33 Y83.264 E16.70805
G1 X47.8 Y82.463 E16.72904
G0 F15000 X47.949 Y82.837
G1 F1350 X49.297 Y82.451 E16.74663
G1 X101.374 Y82.452 E17.39969
G1 X103.48 Y83.311 E17.42821
G1 X104.553 Y84.407 E17.44745
G1 X105.525 Y85.932 E17.47013
G1 X105.8 Y88.064 E17.49709
G1 X105.745 Y127.616 E17.99308
G1 X105.571 Y128.668 E18.00645
G1 X104.901 Y130.21 E18.02754
G1 X103.391 Y131.79 E18.05494
G1 X103.231 Y131.893 E18.05733
G1 X101.31 Y132.547 E18.08278
G1 X49.177 Y132.549 E18.73655
G1 X47.41 Y131.986 E18.7598
G1 X45.946 Y130.739 E18.78392
G1 X45.298 Y129.769 E18.79855
G1 X44.617 Y127.943 E18.82299
G1 X44.618 Y87.114 E19.335
G1 X45.258 Y85.228 E19.35997
G1 X46.591 Y83.577 E19.38658
G1 X47.949 Y82.837 E19.40598
G0 F15000 X48.098 Y83.211
G1 F1350 X49.355 Y82.851 E19.42237
G1 X101.297 Y82.852 E20.07375
G1 X103.251 Y83.649 E20.10021
G1 X104.24 Y84.659 E20.11794
G1 X105.139 Y86.07 E20.13892
G1 X105.4 Y88.063 E20.16412
G1 X105.345 Y127.615 E20.66012
G1 X105.185 Y128.553 E20.67205
G1 X104.562 Y129.986 E20.69165
G1 X103.102 Y131.514 E20.71815
G1 X101.243 Y132.147 E20.74278
G1 X49.238 Y132.149 E21.39494
G1 X47.609 Y131.63 E21.41638
G1 X46.248 Y130.471 E21.4388
G1 X45.657 Y129.586 E21.45214
G1 X45.017 Y127.87 E21.47511
G1 X45.018 Y87.18 E21.98538
G1 X45.614 Y85.423 E22.00865
G1 X46.852 Y83.89 E22.03336
G1 X48.098 Y83.211 E22.05115
G0 F15000 X48.247 Y83.585
G1 F1350 X49.413 Y83.251 E22.06636
G1 X101.22 Y83.252 E22.71604
G1 X103.022 Y83.987 E22.74045
G1 X103.927 Y84.911 E22.75666
G1 X104.753 Y86.208 E22.77595
G1 X105 Y88.063 E22.79942
G1 X104.951 Y127.548 E23.29457
G1 X104.799 Y128.437 E23.30588
G1 X104.223 Y129.762 E23.324
G1 X102.882 Y131.166 E23.34835
G1 X101.176 Y131.747 E23.37095
G1 X49.299 Y131.749 E24.02151
G1 X47.808 Y131.274 E24.04113
G1 X46.55 Y130.203 E24.06185
G1 X46.016 Y129.403 E24.07391
G1 X45.417 Y127.797 E24.0954
G1 X45.418 Y87.247 E24.60392
G1 X45.971 Y85.617 E24.6255
G1 X47.113 Y84.203 E24.64829
G1 X48.247 Y83.585 E24.66449
G0 F15000 X48.396 Y83.959
G1 F1350 X49.471 Y83.651 E24.67851
G1 X101.143 Y83.652 E25.3265
G1 X102.793 Y84.325 E25.34885
G1 X103.614 Y85.163 E25.36356
G1 X104.369 Y86.349 E25.38119
G1 X104.6 Y88.063 E25.40288
G1 X104.557 Y127.48 E25.89718
G1 X104.413 Y128.321 E25.90788
G1 X103.884 Y129.538 E25.92452
G1 X102.662 Y130.818 E25.94671
G1 X101.109 Y131.347 E25.96729
G1 X49.36 Y131.349 E26.61624
G1 X48.007 Y130.918 E26.63405
G1 X46.852 Y129.935 E26.65307
G1 X46.375 Y129.22 E26.66385
G1 X45.817 Y127.724 E26.68387
G1 X45.818 Y87.314 E27.19063
G1 X46.328 Y85.811 E27.21053
G1 X47.374 Y84.516 E27.2314
G1 X48.396 Y83.959 E27.246
G0 F15000 X48.545 Y84.333
G1 F1350 X49.529 Y84.051 E27.25884
G1 X101.066 Y84.052 E27.90513
G1 X102.564 Y84.663 E27.92542
G1 X103.298 Y85.412 E27.93857
G1 X103.985 Y86.492 E27.95462
G1 X104.2 Y88.063 E27.97451
G1 X104.163 Y127.412 E28.46796
G1 X104.027 Y128.205 E28.47805
G1 X103.545 Y129.314 E28.49321
G1 X102.442 Y130.47 E28.51325
G1 X101.042 Y130.947 E28.53179
G1 X49.421 Y130.949 E29.17914
G1 X48.206 Y130.562 E29.19513
G1 X47.154 Y129.667 E29.21245
G1 X46.734 Y129.037 E29.22195
G1 X46.217 Y127.651 E29.2405
G1 X46.218 Y87.381 E29.7455
G1 X46.685 Y86.005 E29.76372
G1 X47.635 Y84.829 E29.78268
G1 X48.545 Y84.333 E29.79568
G0 F15000 X48.694 Y84.707
G1 F1350 X49.587 Y84.451 E29.80733
G1 X100.989 Y84.452 E30.45193
G1 X102.335 Y85.001 E30.47016
G1 X102.982 Y85.661 E30.48175
G1 X103.601 Y86.635 E30.49622
G1 X103.8 Y88.063 E30.5143
G1 X103.769 Y127.344 E31.0069
G1 X103.641 Y128.089 E31.01638
G1 X103.206 Y129.09 E31.03006
G1 X102.222 Y130.122 E31.04795
G1 X100.975 Y130.547 E31.06447
G1 X49.483 Y130.549 E31.7102
G1 X48.404 Y130.205 E31.7244
G1 X47.456 Y129.399 E31.74
G1 X47.093 Y128.854 E31.74821
G1 X46.617 Y127.578 E31.76529
G1 X46.618 Y87.448 E32.26854
G1 X47.042 Y86.199 E32.28508
G1 X47.896 Y85.142 E32.30212
G1 X48.694 Y84.707 E32.31352
G0 F15000 X48.843 Y85.081
G1 F1350 X49.645 Y84.851 E32.32398
G1 X100.912 Y84.852 E32.96689
G1 X102.106 Y85.339 E32.98306
G1 X102.668 Y85.913 E32.99313
G1 X103.217 Y86.776 E33.00596
G1 X103.4 Y88.063 E33.02226
G1 X103.375 Y127.276 E33.51401
G1 X103.255 Y127.973 E33.52287
G1 X102.867 Y128.866 E33.53508
G1 X102.001 Y129.774 E33.55082
G1 X100.908 Y130.147 E33.5653
G1 X49.544 Y130.149 E34.20943
G1 X48.603 Y129.849 E34.22181
G1 X47.758 Y129.131 E34.23572
G1 X47.452 Y128.671 E34.24265
G1 X47.017 Y127.505 E34.25825
G1 X47.018 Y87.515 E34.75974
G1 X47.399 Y86.393 E34.7746
G1 X48.157 Y85.455 E34.78972
G1 X48.843 Y85.081 E34.79952
G0 F15000 X48.996 Y85.453
G1 F1350 X49.699 Y85.251 E34.8087
G1 X100.835 Y85.252 E35.44996
G1 X101.877 Y85.677 E35.46407
G1 X102.352 Y86.162 E35.47258
G1 X102.833 Y86.919 E35.48383
G1 X103 Y88.063 E35.49833
G1 X102.981 Y127.208 E35.98922
G1 X102.869 Y127.857 E35.99748
G1 X102.528 Y128.642 E36.00822
G1 X101.78 Y129.426 E36.0218
G1 X100.84 Y129.747 E36.03426
G1 X49.605 Y129.749 E36.67677
G1 X48.802 Y129.493 E36.68734
G1 X48.059 Y128.861 E36.69957
G1 X47.827 Y128.531 E36.70463
G1 X47.417 Y127.432 E36.71934
G1 X47.418 Y87.582 E37.21907
G1 X47.756 Y86.587 E37.23225
G1 X48.418 Y85.768 E37.24545
G1 X48.996 Y85.453 E37.25371
G0 F15000 X49.151 Y85.824
G1 F1350 X49.753 Y85.651 E37.26156
G1 X100.758 Y85.652 E37.90119
G1 X101.648 Y86.015 E37.91324
G1 X102.035 Y86.411 E37.92018
G1 X102.449 Y87.062 E37.92986
G1 X102.6 Y88.063 E37.94255
G1 X102.587 Y127.14 E38.43259
G1 X102.483 Y127.741 E38.44024
G1 X102.19 Y128.416 E38.44947
G1 X101.558 Y129.079 E38.46096
G1 X100.773 Y129.347 E38.47136
G1 X49.666 Y129.349 E39.11226
G1 X49.001 Y129.137 E39.12101
G1 X48.318 Y128.556 E39.13226
G1 X48.202 Y128.391 E39.13479
G1 X47.817 Y127.359 E39.1486
G1 X47.818 Y87.649 E39.64658
G1 X48.113 Y86.781 E39.65807
G1 X48.678 Y86.082 E39.66934
G1 X49.151 Y85.824 E39.6761
G0 F15000 X49.262 Y86.208
G1 F1350 X49.808 Y86.051 E39.68322
G1 X100.681 Y86.052 E40.32119
G1 X101.419 Y86.353 E40.33119
G1 X101.697 Y86.625 E40.33606
G1 X102.066 Y87.206 E40.34469
G1 X102.2 Y88.063 E40.35557
G1 X102.193 Y127.072 E40.84476
G1 X102.097 Y127.625 E40.8518
G1 X101.851 Y128.192 E40.85955
G1 X101.337 Y128.731 E40.86889
G1 X100.705 Y128.947 E40.87726
G1 X49.727 Y128.949 E41.51655
G1 X49.2 Y128.781 E41.52348
G1 X48.577 Y128.251 E41.53374
G1 X48.217 Y127.286 E41.54666
G1 X48.218 Y87.716 E42.04288
G1 X48.47 Y86.975 E42.0527
G1 X48.938 Y86.396 E42.06203
G1 X49.262 Y86.208 E42.06673
G0 F15000 X49.499 Y86.972
G1 F1350 X49.863 Y86.851 E42.07154
G1 X100.604 Y86.852 E42.70785
G1 X101.021 Y87.053 E42.71366
G1 X101.302 Y87.496 E42.72023
G1 X101.4 Y88.063 E42.72745
G1 X101.397 Y127.012 E43.21588
G1 X101.341 Y127.384 E43.2206
G1 X101.15 Y127.798 E43.22632
G1 X100.838 Y128.096 E43.23173
G1 X100.705 Y128.147 E43.23352
G1 X49.727 Y128.149 E43.8728
G1 X49.598 Y128.101 E43.87453
G1 X49.255 Y127.777 E43.88044
G1 X49.017 Y127.14 E43.88897
G1 X49.018 Y87.85 E44.38168
G1 X49.206 Y87.298 E44.38899
G1 X49.499 Y86.972 E44.39449
G0 F15000 X49.202 Y86.705
G1 F1350 X49.373 Y86.592 E44.39706
G1 X49.863 Y86.451 E44.40346
G1 X100.604 Y86.452 E45.03977
G1 X101.195 Y86.693 E45.04777
G1 X101.359 Y86.839 E45.05052
G1 X101.683 Y87.35 E45.05811
G1 X101.8 Y88.063 E45.06717
G1 X101.793 Y127.072 E45.55636
G1 X101.704 Y127.552 E45.56248
G1 X101.513 Y127.966 E45.5682
G1 X101.114 Y128.385 E45.57545
G1 X100.705 Y128.547 E45.58097
G1 X49.727 Y128.549 E46.22025
G1 X49.459 Y128.476 E46.22374
G1 X48.916 Y128.014 E46.23268
G1 X48.617 Y127.213 E46.2434
G1 X48.618 Y87.783 E46.73787
G1 X48.827 Y87.169 E46.746
G1 X49.202 Y86.705 E46.75348
G1 F1500 E40.25348
G0 F15000 X49.318 Y84.012
G0 X101.262 Y84.013
G0 X123.532 Y87.303
G1 F1500 E46.75348
G1 F1350 X124.095 Y84.477 E46.78962
G1 X125.69 Y82.281 E46.82365
G1 X127.405 Y80.749 E46.85249
G1 X130.185 Y79.768 E46.88946
G1 X182.991 Y79.768 E47.55167
G1 X185.886 Y80.664 E47.58967
G1 X188.315 Y82.949 E47.63149
G1 X189.559 Y85.564 E47.66781
G1 X189.828 Y87.961 E47.69805
G1 X189.822 Y127.809 E48.19776
G1 X189.357 Y130 E48.22585
G1 X188.044 Y132.429 E48.26048
G1 X185.423 Y134.588 E48.30306
G1 X182.718 Y135.231 E48.33793
G1 X130.172 Y135.229 E48.99687
G1 X127.107 Y134.116 E49.03777
G1 X124.882 Y131.799 E49.07805
G1 X123.934 Y129.698 E49.10695
G1 X123.528 Y127.647 E49.13317
G1 X123.532 Y87.303 E49.6391
G0 F15000 X123.932 Y87.341
G1 F1350 X124.47 Y84.642 E49.67362
G1 X125.991 Y82.548 E49.70607
G1 X127.612 Y81.1 E49.73333
G1 X130.253 Y80.168 E49.76845
G1 X182.931 Y80.168 E50.42905
G1 X185.68 Y81.019 E50.46514
G1 X187.986 Y83.188 E50.50484
G1 X189.17 Y85.676 E50.53939
G1 X189.428 Y87.961 E50.56823
G1 X189.422 Y127.768 E51.06742
G1 X188.978 Y129.86 E51.09424
G1 X187.729 Y132.17 E51.12717
G1 X185.24 Y134.22 E51.16761
G1 X182.671 Y134.831 E51.20073
G1 X130.243 Y134.829 E51.85819
G1 X127.33 Y133.771 E51.89706
G1 X125.219 Y131.573 E51.93527
G1 X124.317 Y129.573 E51.96279
G1 X123.928 Y127.609 E51.9879
G1 X123.932 Y87.341 E52.49287
G0 F15000 X124.332 Y87.379
G1 F1350 X124.845 Y84.807 E52.52576
G1 X126.292 Y82.815 E52.55664
G1 X127.819 Y81.451 E52.58231
G1 X130.321 Y80.568 E52.61558
G1 X182.871 Y80.568 E53.27458
G1 X185.474 Y81.374 E53.30875
G1 X187.657 Y83.427 E53.34633
G1 X188.781 Y85.788 E53.37912
G1 X189.028 Y87.961 E53.40655
G1 X189.022 Y127.727 E53.90523
G1 X188.599 Y129.72 E53.93078
G1 X187.414 Y131.911 E53.96202
G1 X185.057 Y133.853 E54.00032
G1 X182.625 Y134.431 E54.03166
G1 X130.314 Y134.429 E54.68766
G1 X127.553 Y133.426 E54.7245
G1 X125.557 Y131.348 E54.76063
G1 X124.699 Y129.447 E54.78679
G1 X124.328 Y127.571 E54.81077
G1 X124.332 Y87.379 E55.31479
G0 F15000 X124.732 Y87.417
G1 F1350 X125.22 Y84.972 E55.34606
G1 X126.593 Y83.082 E55.37535
G1 X128.026 Y81.802 E55.39945
G1 X130.389 Y80.968 E55.43087
G1 X182.811 Y80.968 E56.08826
G1 X185.268 Y81.729 E56.12052
G1 X187.328 Y83.666 E56.15598
G1 X188.392 Y85.9 E56.18701
G1 X188.628 Y87.961 E56.21302
G1 X188.622 Y127.686 E56.71119
G1 X188.22 Y129.58 E56.73547
G1 X187.099 Y131.652 E56.76501
G1 X184.874 Y133.485 E56.80117
G1 X182.578 Y134.031 E56.83076
G1 X130.385 Y134.029 E57.48528
G1 X127.777 Y133.082 E57.52008
G1 X125.893 Y131.12 E57.55419
G1 X125.082 Y129.322 E57.57892
G1 X124.728 Y127.533 E57.60179
G1 X124.732 Y87.417 E58.10486
G0 F15000 X125.132 Y87.455
G1 F1350 X125.595 Y85.137 E58.1345
G1 X126.894 Y83.349 E58.16222
G1 X128.233 Y82.153 E58.18473
G1 X130.457 Y81.368 E58.21431
G1 X182.751 Y81.368 E58.8701
G1 X185.062 Y82.084 E58.90044
G1 X186.999 Y83.905 E58.93377
G1 X188.003 Y86.012 E58.96304
G1 X188.228 Y87.961 E58.98765
G1 X188.222 Y127.645 E59.4853
G1 X187.841 Y129.44 E59.50831
G1 X186.784 Y131.393 E59.53616
G1 X184.691 Y133.118 E59.57017
G1 X182.532 Y133.631 E59.598
G1 X130.456 Y133.629 E60.25105
G1 X128 Y132.737 E60.28382
G1 X126.23 Y130.894 E60.31586
G1 X125.465 Y129.197 E60.33921
G1 X125.128 Y127.495 E60.36097
G1 X125.132 Y87.455 E60.86308
G0 F15000 X125.532 Y87.493
G1 F1350 X125.97 Y85.302 E60.8911
G1 X127.193 Y83.618 E60.9172
G1 X128.441 Y82.503 E60.93819
G1 X130.525 Y81.768 E60.9659
G1 X182.691 Y81.768 E61.62008
G1 X184.856 Y82.439 E61.64851
G1 X186.67 Y84.144 E61.67972
G1 X187.614 Y86.125 E61.70724
G1 X187.828 Y87.961 E61.73042
G1 X187.822 Y127.604 E62.22756
G1 X187.463 Y129.298 E62.24928
G1 X186.468 Y131.135 E62.27548
G1 X184.508 Y132.75 E62.30732
G1 X182.485 Y133.231 E62.3334
G1 X130.527 Y133.229 E62.98497
G1 X128.223 Y132.392 E63.01571
G1 X126.568 Y130.669 E63.04567
G1 X125.847 Y129.071 E63.06766
