;START_OF_HEADER
;HEADER_VERSION:0.1
;FLAVOR:Griffin
;GENERATOR.NAME:Cura_SteamEngine
;GENERATOR.VERSION:5.7.0
;GENERATOR.BUILD_DATE:2024-04-02
;TARGET_MACHINE.NAME:Ultimaker 3 Extended
;EXTRUDER_TRAIN.0.INITIAL_TEMPERATURE:200
;EXTRUDER_TRAIN.0.MATERIAL.VOLUME_USED:13128
;EXTRUDER_TRAIN.0.MATERIAL.GUID:506c9f0d-e3aa-4bd4-b2d2-23e2425b1aa9
;EXTRUDER_TRAIN.0.NOZZLE.DIAMETER:0.4
;EXTRUDER_TRAIN.0.NOZZLE.NAME:AA 0.4
;BUILD_PLATE.INITIAL_TEMPERATURE:60
;PRINT.TIME:7796
;PRINT.GROUPS:1
;PRINT.SIZE.MIN.X:9
;PRINT.SIZE.MIN.Y:6
;PRINT.SIZE.MIN.Z:0.2
;PRINT.SIZE.MAX.X:150.88
;PRINT.SIZE.MAX.Y:135.759
;PRINT.SIZE.MAX.Z:12.05
;SLICE_UUID:ded969eb-cbd3-4f2c-9638-2dfb5c2353d1
;END_OF_HEADER
;Generated with Cura_SteamEngine 5.7.0
T0
M82 ;absolute extrusion mode

G92 E0
M190 S60
M109 S200
G0 F15000 X9 Y6 Z2
G280
G1 F1500 E-6.5
;LAYER_COUNT:80
;LAYER:0
M106 S255
M204 S1000
M205 X20 Y20
G1 F600 Z2.2
G0 F15000 X82.626 Y36.58 Z2.2
;TYPE:SKIRT
G1 F600 Z0.2
G1 F1500 E0
G1 F1350 X84.243 Y33.915 E0.03909
G1 X86.831 Y32.223 E0.07787
G1 X88.952 Y31.707 E0.10524
G1 X144.274 Y31.708 E0.799
G1 X146.276 Y32.339 E0.82532
G1 X148.232 Y33.474 E0.85368
G1 X150.047 Y35.822 E0.8909
G1 X150.88 Y38.425 E0.92517
G1 X150.878 Y81.179 E1.46132
G1 X150.384 Y83.37 E1.48949
G1 X150.133 Y83.824 E1.49599
G1 X150.64 Y84.939 E1.51135
G1 X150.859 Y87.111 E1.53873
G1 X150.856 Y128.821 E2.06179
G1 X150.263 Y131.18 E2.09229
G1 X148.824 Y133.347 E2.12491
G1 X146.985 Y134.834 E2.15457
G1 X144.454 Y135.756 E2.18835
G1 X89.021 Y135.759 E2.8835
G1 X86.792 Y135.258 E2.91215
G1 X84.851 Y133.949 E2.94151
G1 X83.483 Y132.531 E2.96622
G1 X82.362 Y130.068 E3.00015
G1 X82.141 Y127.889 E3.02762
G1 X82.144 Y86.183 E3.55063
G1 X82.69 Y84.006 E3.57877
G1 X82.817 Y83.749 E3.58237
G1 X82.12 Y81.563 E3.61114
G1 X82.122 Y38.822 E4.14713
G1 X82.626 Y36.58 E4.17595
G0 F15000 X83.001 Y36.733
G1 F1350 X84.538 Y34.2 E4.2131
G1 X86.992 Y32.596 E4.24987
G1 X89.002 Y32.107 E4.27581
G1 X144.214 Y32.108 E4.96819
G1 X146.111 Y32.706 E4.99313
G1 X147.964 Y33.781 E5.01999
G1 X149.687 Y36.01 E5.05532
G1 X150.48 Y38.488 E5.08795
G1 X150.478 Y81.135 E5.62276
G1 X149.994 Y83.282 E5.65036
G1 X149.682 Y83.798 E5.65792
G1 X150.249 Y85.045 E5.6751
G1 X150.459 Y87.111 E5.70114
G1 X150.456 Y128.772 E6.22359
G1 X149.892 Y131.017 E6.25261
G1 X148.526 Y133.073 E6.28357
G1 X146.785 Y134.481 E6.31165
G1 X144.383 Y135.356 E6.34371
G1 X89.064 Y135.359 E7.03743
G1 X86.955 Y134.885 E7.06454
G1 X85.109 Y133.64 E7.09246
G1 X83.818 Y132.302 E7.11577
G1 X82.753 Y129.962 E7.14801
G1 X82.541 Y127.889 E7.17415
G1 X82.544 Y86.232 E7.69654
G1 X83.078 Y84.103 E7.72407
G1 X83.277 Y83.74 E7.72926
G1 X83.166 Y83.529 E7.73225
G1 X82.52 Y81.502 E7.75893
G1 X82.522 Y38.865 E8.29361
G1 X83.001 Y36.733 E8.32101
G0 F15000 X83.377 Y36.884
G1 F1350 X84.832 Y34.486 E8.35619
G1 X87.153 Y32.969 E8.39096
G1 X89.052 Y32.507 E8.41547
G1 X144.151 Y32.508 E9.10643
G1 X145.95 Y33.075 E9.13008
G1 X147.696 Y34.088 E9.1554
G1 X149.327 Y36.198 E9.18884
G1 X150.08 Y38.551 E9.21982
G1 X150.078 Y81.091 E9.75329
G1 X149.618 Y83.131 E9.77951
G1 X149.231 Y83.771 E9.78889
G1 X149.857 Y85.149 E9.80787
G1 X150.059 Y87.111 E9.83261
G1 X150.056 Y128.722 E10.35443
G1 X149.52 Y130.854 E10.38199
G1 X148.227 Y132.801 E10.4113
G1 X146.587 Y134.127 E10.43775
G1 X144.312 Y134.956 E10.46812
G1 X89.107 Y134.959 E11.16041
G1 X87.118 Y134.512 E11.18597
G1 X85.367 Y133.331 E11.21246
G1 X84.153 Y132.073 E11.23438
G1 X83.144 Y129.856 E11.26493
G1 X82.941 Y127.889 E11.28972
G1 X82.944 Y86.281 E11.8115
G1 X83.466 Y84.2 E11.83841
G1 X83.74 Y83.746 E11.84506
G1 X83.547 Y83.408 E11.84994
G1 X82.92 Y81.441 E11.87583
G1 X82.922 Y38.909 E12.4092
G1 X83.377 Y36.884 E12.43522
G0 F15000 X83.753 Y37.035
G1 F1350 X85.126 Y34.772 E12.46842
G1 X87.314 Y33.342 E12.5012
G1 X89.102 Y32.907 E12.52427
G1 X144.091 Y32.908 E13.21386
G1 X145.785 Y33.442 E13.23613
G1 X147.428 Y34.395 E13.25995
G1 X148.967 Y36.386 E13.29151
G1 X149.68 Y38.614 E13.32084
G1 X149.678 Y81.047 E13.85297
G1 X149.242 Y82.98 E13.87782
G1 X148.78 Y83.744 E13.88901
G1 X149.465 Y85.253 E13.9098
G1 X149.659 Y87.111 E13.93322
G1 X149.656 Y128.673 E14.45442
G1 X149.149 Y130.691 E14.48052
G1 X147.929 Y132.527 E14.50816
G1 X146.387 Y133.774 E14.53303
G1 X144.241 Y134.556 E14.56167
G1 X89.15 Y134.559 E15.25253
G1 X87.281 Y134.139 E15.27656
G1 X85.625 Y133.022 E15.30161
G1 X84.488 Y131.844 E15.32214
G1 X83.535 Y129.75 E15.35099
G1 X83.341 Y127.889 E15.37445
G1 X83.344 Y86.33 E15.89562
G1 X83.854 Y84.297 E15.9219
G1 X84.215 Y83.755 E15.93007
G1 X83.928 Y83.286 E15.93696
G1 X83.32 Y81.379 E15.96207
G1 X83.322 Y38.953 E16.4941
G1 X83.753 Y37.035 E16.51876
G0 F15000 X84.129 Y37.186
G1 F1350 X85.42 Y35.058 E16.54997
G1 X87.475 Y33.715 E16.58075
G1 X89.152 Y33.307 E16.6024
G1 X144.028 Y33.308 E17.29056
G1 X145.624 Y33.811 E17.31155
G1 X147.16 Y34.702 E17.33382
G1 X148.607 Y36.574 E17.36349
G1 X149.28 Y38.677 E17.39118
G1 X149.278 Y81.003 E17.92196
G1 X148.866 Y82.829 E17.94543
G1 X148.329 Y83.717 E17.95845
G1 X149.074 Y85.357 E17.98104
G1 X149.259 Y87.111 E18.00316
G1 X149.256 Y128.623 E18.52373
G1 X148.777 Y130.528 E18.54836
G1 X147.63 Y132.255 E18.57436
G1 X146.189 Y133.42 E18.5976
G1 X144.17 Y134.156 E18.62455
G1 X89.193 Y134.159 E19.31398
G1 X87.444 Y133.766 E19.33646
G1 X85.883 Y132.713 E19.36007
G1 X84.823 Y131.615 E19.37921
G1 X83.926 Y129.644 E19.40637
G1 X83.741 Y127.889 E19.4285
G1 X83.744 Y86.379 E19.94905
G1 X84.225 Y84.462 E19.97384
G1 X84.693 Y83.759 E19.98443
G1 X84.309 Y83.164 E19.99331
G1 X83.72 Y81.317 E20.01762
G1 X83.722 Y38.997 E20.54833
G1 X84.129 Y37.186 E20.5716
G0 F15000 X84.505 Y37.337
G1 F1350 X85.714 Y35.344 E20.60084
G1 X87.636 Y34.088 E20.62963
G1 X89.202 Y33.707 E20.64984
G1 X143.968 Y33.708 E21.33663
G1 X145.459 Y34.178 E21.35623
G1 X146.892 Y35.009 E21.377
G1 X148.247 Y36.762 E21.40479
G1 X148.88 Y38.74 E21.43083
G1 X148.878 Y80.959 E21.96027
G1 X148.49 Y82.678 E21.98237
G1 X147.878 Y83.69 E21.9972
G1 X148.683 Y85.462 E22.02161
G1 X148.859 Y87.111 E22.04241
G1 X148.856 Y128.574 E22.56237
G1 X148.406 Y130.365 E22.58553
G1 X147.332 Y131.981 E22.60986
G1 X145.989 Y133.067 E22.63152
G1 X144.099 Y133.756 E22.65675
G1 X89.236 Y133.759 E23.34475
G1 X87.607 Y133.393 E23.36569
G1 X86.141 Y132.404 E23.38786
G1 X85.158 Y131.386 E23.40561
G1 X84.317 Y129.538 E23.43107
G1 X84.141 Y127.889 E23.45187
G1 X84.144 Y86.428 E23.9718
G1 X84.596 Y84.627 E23.99509
G1 X85.171 Y83.763 E24.0081
G1 X84.674 Y82.992 E24.01961
G1 X84.12 Y81.255 E24.04247
G1 X84.122 Y39.041 E24.57185
G1 X84.505 Y37.337 E24.59375
G0 F15000 X84.881 Y37.488
G1 F1350 X86.008 Y35.63 E24.621
G1 X87.797 Y34.461 E24.6478
G1 X89.252 Y34.107 E24.66658
G1 X143.905 Y34.108 E25.35195
G1 X145.298 Y34.547 E25.37027
G1 X146.624 Y35.316 E25.38949
G1 X147.887 Y36.95 E25.41539
G1 X148.48 Y38.803 E25.43979
G1 X148.478 Y80.915 E25.96789
G1 X148.114 Y82.527 E25.98861
G1 X147.383 Y83.736 E26.00633
G1 X147.564 Y83.967 E26.01001
G1 X148.292 Y85.568 E26.03206
G1 X148.459 Y87.111 E26.05153
G1 X148.456 Y128.524 E26.57086
G1 X148.034 Y130.202 E26.59256
G1 X147.034 Y131.707 E26.61522
G1 X145.789 Y132.714 E26.6353
G1 X144.028 Y133.356 E26.6588
G1 X89.279 Y133.359 E27.34538
G1 X87.77 Y133.02 E27.36477
G1 X86.399 Y132.095 E27.38551
G1 X85.493 Y131.157 E27.40187
G1 X84.708 Y129.432 E27.42563
G1 X84.541 Y127.889 E27.44509
G1 X84.544 Y86.477 E27.96442
G1 X84.967 Y84.792 E27.9862
G1 X85.649 Y83.767 E28.00164
G1 X85.039 Y82.82 E28.01577
G1 X84.52 Y81.193 E28.03718
G1 X84.522 Y39.085 E28.56523
G1 X84.881 Y37.488 E28.58576
G0 F15000 X85.257 Y37.639
G1 F1350 X86.302 Y35.916 E28.61103
G1 X87.958 Y34.834 E28.63584
G1 X89.302 Y34.507 E28.65318
G1 X143.842 Y34.508 E29.33714
G1 X145.137 Y34.916 E29.35416
G1 X146.356 Y35.623 E29.37183
G1 X147.527 Y37.138 E29.39585
G1 X148.08 Y38.866 E29.4186
G1 X148.078 Y80.871 E29.94536
G1 X147.738 Y82.376 E29.96471
G1 X146.889 Y83.78 E29.98528
G1 X147.2 Y84.133 E29.99118
G1 X147.901 Y85.674 E30.01241
G1 X148.059 Y87.111 E30.03054
G1 X148.056 Y128.475 E30.54926
G1 X147.663 Y130.039 E30.56948
G1 X146.735 Y131.435 E30.5905
G1 X145.591 Y132.36 E30.60895
G1 X143.957 Y132.956 E30.63077
G1 X89.322 Y132.959 E31.31591
G1 X87.933 Y132.647 E31.33376
G1 X86.657 Y131.786 E31.35306
G1 X85.828 Y130.928 E31.36803
G1 X85.099 Y129.326 E31.3901
G1 X84.941 Y127.889 E31.40823
G1 X84.944 Y86.526 E31.92693
G1 X85.338 Y84.957 E31.94722
G1 X86.127 Y83.771 E31.96508
G1 X85.404 Y82.648 E31.98183
G1 X84.92 Y81.131 E32.0018
G1 X84.922 Y39.129 E32.52852
G1 X85.257 Y37.639 E32.54767
G0 F15000 X85.633 Y37.79
G1 F1350 X86.596 Y36.202 E32.57096
G1 X88.119 Y35.207 E32.59378
G1 X89.352 Y34.907 E32.60969
G1 X143.779 Y34.908 E33.29223
G1 X144.976 Y35.285 E33.30796
G1 X146.088 Y35.93 E33.32408
G1 X147.167 Y37.326 E33.34621
G1 X147.68 Y38.929 E33.36732
G1 X147.678 Y80.827 E33.89273
G1 X147.363 Y82.222 E33.91067
G1 X146.555 Y83.562 E33.93029
G1 X146.33 Y83.776 E33.93418
G1 X146.836 Y84.299 E33.94331
G1 X147.51 Y85.78 E33.96372
G1 X147.659 Y87.111 E33.98051
G1 X147.656 Y128.425 E34.4986
G1 X147.291 Y129.876 E34.51737
G1 X146.437 Y131.161 E34.53672
G1 X145.391 Y132.007 E34.55359
G1 X143.886 Y132.556 E34.57368
G1 X89.365 Y132.559 E35.25739
G1 X88.096 Y132.274 E35.2737
G1 X86.915 Y131.477 E35.29157
G1 X86.163 Y130.699 E35.30514
G1 X85.49 Y129.22 E35.32551
G1 X85.341 Y127.889 E35.34231
G1 X85.344 Y86.575 E35.8604
G1 X85.709 Y85.122 E35.87919
G1 X86.494 Y83.942 E35.89696
G1 X86.628 Y83.809 E35.89933
G1 X85.769 Y82.476 E35.91922
G1 X85.32 Y81.069 E35.93774
G1 X85.322 Y39.173 E36.46313
G1 X85.633 Y37.79 E36.4809
G0 F15000 X86.009 Y37.941
G1 F1350 X86.89 Y36.488 E36.50221
G1 X88.28 Y35.58 E36.52303
G1 X89.402 Y35.307 E36.53751
G1 X143.716 Y35.308 E37.21863
G1 X144.815 Y35.654 E37.23308
G1 X145.82 Y36.237 E37.24765
G1 X146.807 Y37.514 E37.26789
G1 X147.28 Y38.992 E37.28735
G1 X147.278 Y80.783 E37.81143
G1 X146.988 Y82.068 E37.82795
G1 X146.212 Y83.355 E37.84679
G1 X145.741 Y83.742 E37.85444
G1 X146.501 Y84.528 E37.86815
G1 X147.12 Y85.889 E37.8869
G1 X147.259 Y87.111 E37.90232
G1 X147.256 Y128.376 E38.4198
G1 X146.92 Y129.713 E38.43709
G1 X146.138 Y130.889 E38.4548
G1 X145.193 Y131.653 E38.47004
G1 X143.815 Y132.156 E38.48843
G1 X89.408 Y132.159 E39.17072
G1 X88.259 Y131.901 E39.18548
G1 X87.173 Y131.168 E39.20191
G1 X86.498 Y130.47 E39.21409
G1 X85.88 Y129.111 E39.23281
G1 X85.741 Y127.889 E39.24824
G1 X85.744 Y86.624 E39.76571
G1 X86.08 Y85.287 E39.783
G1 X86.827 Y84.164 E39.79992
G1 X87.266 Y83.787 E39.80717
G1 X86.926 Y83.534 E39.81249
G1 X86.134 Y82.304 E39.83083
G1 X85.72 Y81.007 E39.84791
G1 X85.722 Y39.217 E40.37197
G1 X86.009 Y37.941 E40.38837
G0 F15000 X86.385 Y38.092
G1 F1350 X87.184 Y36.774 E40.4077
G1 X88.441 Y35.953 E40.42653
G1 X89.452 Y35.707 E40.43957
G1 X143.653 Y35.708 E41.11927
G1 X144.654 Y36.023 E41.13243
G1 X145.552 Y36.544 E41.14545
G1 X146.447 Y37.702 E41.16381
G1 X146.88 Y39.055 E41.18162
G1 X146.878 Y80.739 E41.70436
G1 X146.613 Y81.914 E41.71946
G1 X145.869 Y83.148 E41.73753
G1 X145.029 Y83.777 E41.75069
G1 X145.575 Y84.146 E41.75895
G1 X146.167 Y84.758 E41.76963
G1 X146.73 Y85.997 E41.7867
G1 X146.859 Y87.111 E41.80076
G1 X146.856 Y128.326 E42.31761
G1 X146.548 Y129.55 E42.33344
G1 X145.84 Y130.615 E42.34948
G1 X144.993 Y131.3 E42.36314
G1 X143.744 Y131.756 E42.37981
G1 X89.451 Y131.759 E43.06067
G1 X88.422 Y131.528 E43.07389
G1 X87.428 Y130.857 E43.08893
G1 X86.833 Y130.242 E43.09966
G1 X86.27 Y129.003 E43.11673
G1 X86.141 Y127.889 E43.13079
G1 X86.144 Y86.674 E43.64764
G1 X86.452 Y85.45 E43.66347
G1 X87.16 Y84.385 E43.67951
G1 X87.963 Y83.738 E43.69244
G1 X87.262 Y83.318 E43.70269
G1 X86.5 Y82.134 E43.72035
G1 X86.12 Y80.945 E43.736
G1 X86.122 Y39.261 E44.25873
G1 X86.385 Y38.092 E44.27376
G0 F15000 X86.761 Y38.243
G1 F1350 X87.478 Y37.06 E44.29111
G1 X88.602 Y36.326 E44.30794
G1 X89.502 Y36.107 E44.31956
G1 X143.59 Y36.108 E44.99784
G1 X144.493 Y36.392 E45.00971
G1 X145.284 Y36.851 E45.02118
G1 X146.087 Y37.89 E45.03765
G1 X146.48 Y39.118 E45.05382
G1 X146.478 Y80.695 E45.57521
G1 X146.238 Y81.76 E45.5889
G1 X145.565 Y82.876 E45.60524
G1 X144.562 Y83.627 E45.62095
G1 X144.082 Y83.77 E45.62723
G1 X144.478 Y83.887 E45.63241
G1 X145.317 Y84.454 E45.64511
G1 X145.832 Y84.986 E45.6544
G1 X146.34 Y86.105 E45.66981
G1 X146.459 Y87.111 E45.68251
G1 X146.456 Y128.276 E46.19873
G1 X146.176 Y129.387 E46.2131
G1 X145.542 Y130.341 E46.22747
G1 X144.793 Y130.947 E46.23955
G1 X143.673 Y131.356 E46.2545
G1 X89.494 Y131.359 E46.93393
G1 X88.585 Y131.155 E46.94561
G1 X87.683 Y130.546 E46.95926
G1 X87.168 Y130.014 E46.96854
G1 X86.66 Y128.895 E46.98395
G1 X86.541 Y127.889 E46.99666
G1 X86.544 Y86.724 E47.51288
G1 X86.824 Y85.613 E47.52725
G1 X87.458 Y84.659 E47.54161
G1 X88.207 Y84.053 E47.5537
G1 X88.984 Y83.769 E47.56407
G1 X88.621 Y83.666 E47.5688
G1 X87.547 Y83.023 E47.5845
G1 X86.866 Y81.964 E47.60029
G1 X86.52 Y80.882 E47.61453
G1 X86.522 Y39.305 E48.13593
G1 X86.761 Y38.243 E48.14958
G0 F15000 X87.137 Y38.394
G1 F1350 X87.772 Y37.346 E48.16494
G1 X88.763 Y36.699 E48.17978
G1 X89.552 Y36.507 E48.18997
G1 X143.527 Y36.508 E48.86683
G1 X144.332 Y36.761 E48.87742
G1 X145.016 Y37.158 E48.88733
G1 X145.727 Y38.078 E48.90191
G1 X146.08 Y39.181 E48.91644
G1 X146.078 Y80.651 E49.43649
G1 X145.863 Y81.606 E49.44876
G1 X145.261 Y82.604 E49.46338
G1 X144.322 Y83.307 E49.47809
G1 X143.494 Y83.492 E49.48873
G1 X89.572 Y83.494 E50.16493
G1 X88.827 Y83.323 E50.17452
G1 X87.832 Y82.727 E50.18906
G1 X87.232 Y81.794 E50.20297
G1 X86.92 Y80.819 E50.21581
G1 X86.922 Y39.349 E50.73586
G1 X87.137 Y38.394 E50.74813
G0 F15000 X87.513 Y38.545
G1 F1350 X88.066 Y37.632 E50.76152
G1 X88.924 Y37.072 E50.77437
G1 X89.602 Y36.907 E50.78312
G1 X143.464 Y36.908 E51.45857
G1 X144.171 Y37.13 E51.46786
G1 X144.746 Y37.464 E51.4762
G1 X145.368 Y38.269 E51.48896
G1 X145.68 Y39.244 E51.5018
G1 X145.678 Y80.607 E52.0205
G1 X145.487 Y81.455 E52.0314
G1 X144.959 Y82.33 E52.04422
G1 X144.15 Y82.936 E52.05689
G1 X143.452 Y83.092 E52.06586
G1 X89.618 Y83.094 E52.74096
G1 X88.978 Y82.947 E52.7492
G1 X88.117 Y82.431 E52.76178
G1 X87.598 Y81.624 E52.77382
G1 X87.32 Y80.756 E52.78525
G1 X87.322 Y39.393 E53.30395
G1 X87.513 Y38.545 E53.31485
G0 F15000 X87.889 Y38.696
G1 F1350 X88.36 Y37.918 E53.32626
G1 X89.085 Y37.445 E53.33712
G1 X89.652 Y37.307 E53.34443
G1 X143.401 Y37.308 E54.01847
G1 X144.01 Y37.499 E54.02647
G1 X144.476 Y37.77 E54.03323
G1 X145.009 Y38.46 E54.04416
G1 X145.28 Y39.307 E54.05532
G1 X145.278 Y80.563 E54.57268
G1 X145.111 Y81.304 E54.58221
G1 X144.657 Y82.056 E54.59322
G1 X143.978 Y82.565 E54.60386
G1 X143.41 Y82.692 E54.61116
G1 X89.664 Y82.694 E55.28516
G1 X89.129 Y82.571 E55.29204
G1 X88.402 Y82.135 E55.30267
G1 X87.964 Y81.454 E55.31283
G1 X87.72 Y80.693 E55.32285
G1 X87.722 Y39.437 E55.84021
G1 X87.889 Y38.696 E55.84974
G0 F15000 X88.265 Y38.847
G1 F1350 X88.654 Y38.204 E55.85916
G1 X89.304 Y37.78 E55.8689
G1 X89.652 Y37.707 E55.87335
G1 X143.338 Y37.708 E56.5466
G1 X143.89 Y37.881 E56.55385
G1 X144.208 Y38.077 E56.55854
G1 X144.649 Y38.649 E56.56759
G1 X144.88 Y39.37 E56.57709
G1 X144.878 Y80.519 E57.09311
G1 X144.735 Y81.153 E57.10126
G1 X144.355 Y81.782 E57.11048
G1 X143.806 Y82.194 E57.11908
G1 X143.41 Y82.292 E57.1242
G1 X89.664 Y82.294 E57.7982
G1 X89.335 Y82.228 E57.8024
G1 X88.687 Y81.839 E57.81188
G1 X88.33 Y81.284 E57.82016
G1 X88.12 Y80.63 E57.82877
G1 X88.122 Y39.481 E58.34479
G1 X88.265 Y38.847 E58.35294
G0 F15000 X89.029 Y39.095
G1 F1350 X89.282 Y38.71 E58.35872
G1 X89.652 Y38.507 E58.36401
G1 X143.275 Y38.508 E59.03647
G1 X143.632 Y38.639 E59.04124
G1 X143.908 Y38.96 E59.04654
G1 X144.08 Y39.496 E59.0536
G1 X144.078 Y80.475 E59.5675
G1 X143.971 Y80.905 E59.57305
G1 X143.719 Y81.289 E59.57881
G1 X143.41 Y81.492 E59.58345
G1 X89.664 Y81.494 E60.25744
G1 X89.291 Y81.303 E60.2627
G1 X89.092 Y81.04 E60.26683
G1 X88.92 Y80.504 E60.27389
G1 X88.922 Y39.525 E60.78779
G1 X89.029 Y39.095 E60.79334
G0 F15000 X88.641 Y38.998
G1 F1350 X88.948 Y38.49 E60.80079
G1 X89.46 Y38.156 E60.80845
G1 X89.652 Y38.107 E60.81094
G1 X143.275 Y38.108 E61.48339
G1 X143.77 Y38.263 E61.48989
