;START_OF_HEADER
;HEADER_VERSION:0.1
;FLAVOR:Griffin
;GENERATOR.NAME:Cura_SteamEngine
;GENERATOR.VERSION:5.7.0
;GENERATOR.BUILD_DATE:2024-04-02
;TARGET_MACHINE.NAME:Ultimaker 3 Extended
;EXTRUDER_TRAIN.0.INITIAL_TEMPERATURE:200
;EXTRUDER_TRAIN.0.MATERIAL.VOLUME_USED:6524
;EXTRUDER_TRAIN.0.MATERIAL.GUID:506c9f0d-e3aa-4bd4-b2d2-23e2425b1aa9
;EXTRUDER_TRAIN.0.NOZZLE.DIAMETER:0.4
;EXTRUDER_TRAIN.0.NOZZLE.NAME:AA 0.4
;BUILD_PLATE.INITIAL_TEMPERATURE:60
;PRINT.TIME:4059
;PRINT.GROUPS:1
;PRINT.SIZE.MIN.X:9
;PRINT.SIZE.MIN.Y:6
;PRINT.SIZE.MIN.Z:0.2
;PRINT.SIZE.MAX.X:149.19
;PRINT.SIZE.MAX.Y:176.081
;PRINT.SIZE.MAX.Z:8.05
;SLICE_UUID:6a6b41b9-27f8-4e38-88cc-7b746d55cfc5
;END_OF_HEADER
;Generated with Cura_SteamEngine 5.7.0
T0
M82 ;absolute extrusion mode

G92 E0
M190 S60
M109 S200
G0 F15000 X9 Y6 Z2
G280
G1 F1500 E-6.5
;LAYER_COUNT:40
;LAYER:0
M106 S255
M204 S1000
M205 X20 Y20
G1 F600 Z2.2
G0 F15000 X84.177 Y39.44 Z2.2
;TYPE:SKIRT
G1 F600 Z0.2
G1 F1500 E0
G1 F1350 X85.39 Y36.902 E0.03528
G1 X87.818 Y34.75 E0.07596
G1 X89.61 Y33.876 E0.10096
G1 X142.321 Y33.876 E0.76198
G1 X144.698 Y34.546 E0.79295
G1 X145.501 Y34.974 E0.80436
G1 X147.424 Y36.788 E0.83751
G1 X148.278 Y38.041 E0.85653
G1 X149.19 Y40.731 E0.89215
G1 X149.14 Y82.046 E1.41025
G1 X148.859 Y83.401 E1.42761
G1 X148.314 Y85.04 E1.44927
G1 X146.881 Y87.065 E1.48038
G1 X144.756 Y88.621 E1.51341
G1 X142.282 Y89.339 E1.54571
G1 X90.647 Y89.336 E2.19323
G1 X88.565 Y88.726 E2.22044
G1 X87.046 Y87.863 E2.24235
G1 X85.082 Y85.86 E2.27753
G1 X84.029 Y83.304 E2.31219
G1 X83.824 Y81.475 E2.33527
G1 X83.908 Y40.965 E2.84328
G1 X84.177 Y39.44 E2.8627
G0 F15000 X84.561 Y39.564
G1 F1350 X85.717 Y37.146 E2.89631
G1 X88.04 Y35.087 E2.93524
G1 X89.703 Y34.276 E2.95844
G1 X142.266 Y34.276 E3.6176
G1 X144.548 Y34.919 E3.64733
G1 X145.266 Y35.302 E3.65754
G1 X147.119 Y37.05 E3.68948
G1 X147.916 Y38.219 E3.70723
G1 X148.79 Y40.797 E3.74136
G1 X148.74 Y82.004 E4.25811
G1 X148.479 Y83.275 E4.27439
G1 X147.952 Y84.86 E4.29533
G1 X146.593 Y86.78 E4.32483
G1 X144.576 Y88.257 E4.35618
G1 X142.226 Y88.939 E4.38687
G1 X90.704 Y88.936 E5.03297
G1 X88.724 Y88.356 E5.05885
G1 X87.292 Y87.542 E5.0795
G1 X85.422 Y85.635 E5.113
G1 X84.421 Y83.205 E5.14595
G1 X84.222 Y81.43 E5.16835
G1 X84.302 Y41.034 E5.67493
G1 X84.561 Y39.564 E5.69365
G0 F15000 X84.945 Y39.688
G1 F1350 X86.044 Y37.39 E5.7256
G1 X88.262 Y35.424 E5.76276
G1 X89.796 Y34.676 E5.78417
G1 X142.21 Y34.676 E6.44146
G1 X144.399 Y35.293 E6.46998
G1 X145.031 Y35.63 E6.47896
G1 X146.814 Y37.312 E6.5097
G1 X147.554 Y38.397 E6.52617
G1 X148.39 Y40.863 E6.55882
G1 X148.34 Y81.963 E7.07423
G1 X148.099 Y83.149 E7.08941
G1 X147.59 Y84.68 E7.10964
G1 X146.305 Y86.495 E7.13753
G1 X144.396 Y87.893 E7.1672
G1 X142.17 Y88.539 E7.19627
G1 X90.762 Y88.536 E7.84094
G1 X88.882 Y87.985 E7.86551
G1 X87.538 Y87.221 E7.8849
G1 X85.762 Y85.41 E7.91671
G1 X84.813 Y83.106 E7.94795
G1 X84.62 Y81.385 E7.96967
G1 X84.696 Y41.103 E8.47482
G1 X84.945 Y39.688 E8.49284
G0 F15000 X85.33 Y39.811
G1 F1350 X86.37 Y37.635 E8.52308
G1 X88.487 Y35.759 E8.55856
G1 X89.887 Y35.076 E8.57809
G1 X142.155 Y35.076 E9.23355
G1 X144.249 Y35.666 E9.26083
G1 X144.794 Y35.957 E9.26858
G1 X146.511 Y37.577 E9.29818
G1 X147.192 Y38.575 E9.31333
G1 X147.99 Y40.929 E9.3445
G1 X147.94 Y81.923 E9.85859
G1 X147.719 Y83.023 E9.87266
G1 X147.228 Y84.5 E9.89217
G1 X146.017 Y86.21 E9.91845
G1 X144.216 Y87.529 E9.94645
G1 X142.114 Y88.139 E9.97389
G1 X90.819 Y88.136 E10.61715
G1 X89.041 Y87.615 E10.64039
G1 X87.784 Y86.9 E10.65852
G1 X86.102 Y85.185 E10.68864
G1 X85.205 Y83.007 E10.71818
G1 X85.018 Y81.34 E10.73922
G1 X85.09 Y41.172 E11.24294
G1 X85.33 Y39.811 E11.26027
G0 F15000 X85.714 Y39.935
G1 F1350 X86.697 Y37.879 E11.28885
G1 X88.709 Y36.096 E11.32256
G1 X89.98 Y35.476 E11.3403
G1 X142.099 Y35.476 E11.99389
G1 X144.1 Y36.04 E12.01996
G1 X144.559 Y36.285 E12.02648
G1 X146.204 Y37.837 E12.05485
G1 X146.831 Y38.755 E12.06879
G1 X147.59 Y40.995 E12.09845
G1 X147.54 Y81.885 E12.61122
G1 X147.339 Y82.897 E12.62416
G1 X146.866 Y84.32 E12.64297
G1 X145.729 Y85.925 E12.66763
G1 X144.036 Y87.165 E12.69395
G1 X142.058 Y87.739 E12.71978
G1 X90.877 Y87.736 E13.3616
G1 X89.199 Y87.244 E13.38353
G1 X88.03 Y86.579 E13.4004
G1 X86.442 Y84.96 E13.42884
G1 X85.597 Y82.908 E13.45667
G1 X85.416 Y81.295 E13.47702
G1 X85.484 Y41.241 E13.97931
G1 X85.714 Y39.935 E13.99594
G0 F15000 X86.098 Y40.059
G1 F1350 X87.024 Y38.123 E14.02286
G1 X88.931 Y36.433 E14.05481
G1 X90.073 Y35.876 E14.07074
G1 X142.043 Y35.876 E14.72247
G1 X143.991 Y36.425 E14.74785
G1 X144.324 Y36.613 E14.75264
G1 X145.897 Y38.097 E14.77976
G1 X146.47 Y38.935 E14.79249
G1 X147.19 Y41.061 E14.82064
G1 X147.14 Y81.843 E15.33206
G1 X146.959 Y82.771 E15.34392
G1 X146.504 Y84.14 E15.36201
G1 X145.441 Y85.64 E15.38507
G1 X143.856 Y86.801 E15.4097
G1 X142.002 Y87.339 E15.43391
G1 X90.935 Y87.336 E16.07431
G1 X89.357 Y86.873 E16.09494
G1 X88.276 Y86.258 E16.11053
G1 X86.782 Y84.735 E16.13729
G1 X85.989 Y82.809 E16.16341
G1 X85.814 Y81.25 E16.18308
G1 X85.878 Y41.31 E16.68394
G1 X86.098 Y40.059 E16.69987
G0 F15000 X86.483 Y40.182
G1 F1350 X87.35 Y38.368 E16.72508
G1 X89.153 Y36.77 E16.7553
G1 X90.166 Y36.276 E16.76943
G1 X141.988 Y36.276 E17.4193
G1 X143.883 Y36.81 E17.44399
G1 X144.049 Y36.904 E17.44638
G1 X145.592 Y38.36 E17.47298
G1 X146.109 Y39.115 E17.48446
G1 X146.79 Y41.127 E17.5111
G1 X146.74 Y81.804 E18.0212
G1 X146.579 Y82.645 E18.03194
G1 X146.142 Y83.96 E18.04932
G1 X145.153 Y85.355 E18.07076
G1 X143.676 Y86.437 E18.09372
G1 X141.946 Y86.939 E18.11631
G1 X90.993 Y86.936 E18.75528
G1 X89.515 Y86.502 E18.7746
G1 X88.522 Y85.937 E18.78892
G1 X87.122 Y84.51 E18.81399
G1 X86.38 Y82.707 E18.83844
G1 X86.214 Y81.251 E18.85682
G1 X86.272 Y41.379 E19.35683
G1 X86.483 Y40.182 E19.37207
G0 F15000 X86.867 Y40.306
G1 F1350 X87.677 Y38.612 E19.39562
G1 X89.375 Y37.107 E19.42407
G1 X90.259 Y36.676 E19.43641
G1 X141.933 Y36.676 E20.08442
G1 X143.775 Y37.195 E20.10842
G1 X145.286 Y38.62 E20.13446
G1 X145.748 Y39.295 E20.14472
G1 X146.39 Y41.193 E20.16985
G1 X146.34 Y81.766 E20.67865
G1 X146.199 Y82.519 E20.68825
G1 X145.78 Y83.78 E20.70492
G1 X144.865 Y85.07 E20.72475
G1 X143.496 Y86.073 E20.74603
G1 X141.89 Y86.539 E20.767
G1 X91.052 Y86.536 E21.40453
G1 X89.673 Y86.131 E21.42256
G1 X88.768 Y85.616 E21.43561
G1 X87.462 Y84.285 E21.459
G1 X86.771 Y82.605 E21.48178
G1 X86.614 Y81.252 E21.49886
G1 X86.666 Y41.448 E21.99802
G1 X86.867 Y40.306 E22.01256
G0 F15000 X87.251 Y40.43
G1 F1350 X88.004 Y38.856 E22.03444
G1 X89.597 Y37.444 E22.06113
G1 X90.352 Y37.076 E22.07167
G1 X141.877 Y37.076 E22.71781
G1 X143.573 Y37.554 E22.73991
G1 X144.98 Y38.88 E22.76415
G1 X145.387 Y39.475 E22.77319
G1 X145.99 Y41.259 E22.79681
G1 X145.946 Y81.694 E23.30388
G1 X145.819 Y82.393 E23.31279
G1 X145.419 Y83.598 E23.32871
G1 X144.577 Y84.784 E23.34695
G1 X143.314 Y85.71 E23.36659
G1 X141.834 Y86.139 E23.38591
G1 X91.111 Y86.136 E24.022
G1 X89.831 Y85.76 E24.03873
G1 X89.012 Y85.294 E24.05054
G1 X87.803 Y84.062 E24.07219
G1 X87.162 Y82.503 E24.09333
G1 X87.014 Y81.252 E24.10912
G1 X87.06 Y41.517 E24.60742
G1 X87.251 Y40.43 E24.62126
G0 F15000 X87.636 Y40.553
G1 F1350 X88.33 Y39.101 E24.64144
G1 X89.822 Y37.779 E24.66644
G1 X90.443 Y37.476 E24.6751
G1 X141.821 Y37.476 E25.3194
G1 X143.371 Y37.913 E25.3396
G1 X144.674 Y39.14 E25.36204
G1 X145.026 Y39.655 E25.36986
G1 X145.59 Y41.325 E25.39197
G1 X145.552 Y81.625 E25.89735
G1 X145.439 Y82.267 E25.90552
G1 X145.058 Y83.416 E25.9207
G1 X144.288 Y84.5 E25.93737
G1 X143.134 Y85.346 E25.95532
G1 X141.778 Y85.739 E25.97302
G1 X91.17 Y85.736 E26.60767
G1 X89.989 Y85.389 E26.6231
G1 X89.256 Y84.972 E26.63368
G1 X88.144 Y83.839 E26.65359
G1 X87.553 Y82.401 E26.67308
G1 X87.414 Y81.252 E26.6876
G1 X87.454 Y41.586 E27.18502
G1 X87.636 Y40.553 E27.19818
G0 F15000 X88.02 Y40.677
G1 F1350 X88.657 Y39.345 E27.21669
G1 X90.087 Y38.078 E27.24065
G1 X90.535 Y37.876 E27.24681
G1 X141.765 Y37.876 E27.88926
G1 X143.169 Y38.272 E27.90755
G1 X144.4 Y39.431 E27.92875
G1 X144.665 Y39.836 E27.93482
G1 X145.19 Y41.391 E27.95541
G1 X145.158 Y81.558 E28.45911
G1 X145.059 Y82.141 E28.46653
G1 X144.697 Y83.234 E28.48097
G1 X143.999 Y84.216 E28.49608
G1 X142.954 Y84.982 E28.51233
G1 X141.722 Y85.339 E28.52841
G1 X91.229 Y85.336 E29.16161
G1 X90.147 Y85.018 E29.17575
G1 X89.5 Y84.65 E29.18509
G1 X88.485 Y83.616 E29.20326
G1 X87.944 Y82.299 E29.22111
G1 X87.814 Y81.252 E29.23434
G1 X87.848 Y41.655 E29.73091
G1 X88.02 Y40.677 E29.74336
G0 F15000 X88.405 Y40.8
G1 F1350 X88.983 Y39.59 E29.76017
G1 X90.352 Y38.377 E29.78311
G1 X90.535 Y38.276 E29.78573
G1 X141.709 Y38.276 E30.42747
G1 X142.967 Y38.631 E30.44387
G1 X144.094 Y39.692 E30.46328
G1 X144.286 Y39.964 E30.46745
G1 X144.79 Y41.457 E30.48721
G1 X144.763 Y81.494 E30.98929
G1 X144.679 Y82.015 E30.99591
G1 X144.336 Y83.052 E31.00961
G1 X143.71 Y83.932 E31.02315
G1 X142.774 Y84.618 E31.0377
G1 X141.666 Y84.939 E31.05217
G1 X91.288 Y84.936 E31.68393
G1 X90.305 Y84.647 E31.69678
G1 X89.744 Y84.328 E31.70487
G1 X88.826 Y83.393 E31.7213
G1 X88.335 Y82.197 E31.73751
G1 X88.214 Y81.252 E31.74946
G1 X88.242 Y41.724 E32.24516
G1 X88.405 Y40.8 E32.25692
G0 F15000 X88.789 Y40.924
G1 F1350 X89.31 Y39.834 E32.27207
G1 X90.617 Y38.676 E32.29397
G1 X141.654 Y38.676 E32.93399
G1 X142.765 Y38.989 E32.94847
G1 X143.82 Y39.983 E32.96665
G1 X143.925 Y40.146 E32.96908
G1 X144.39 Y41.523 E32.9873
G1 X144.368 Y81.43 E33.48775
G1 X144.284 Y81.951 E33.49437
G1 X143.976 Y82.868 E33.5065
G1 X143.421 Y83.648 E33.51851
G1 X142.594 Y84.254 E33.53136
G1 X141.61 Y84.539 E33.54421
G1 X91.347 Y84.536 E34.17453
G1 X90.463 Y84.276 E34.18608
G1 X89.988 Y84.006 E34.19293
G1 X89.167 Y83.17 E34.20763
G1 X88.726 Y82.096 E34.22219
G1 X88.614 Y81.252 E34.23286
G1 X88.636 Y41.793 E34.72769
G1 X88.789 Y40.924 E34.73876
G0 F15000 X89.173 Y41.048
G1 F1350 X89.637 Y40.078 E34.75224
G1 X90.768 Y39.076 E34.77119
G1 X141.598 Y39.076 E35.40862
G1 X142.563 Y39.348 E35.42119
G1 X143.546 Y40.274 E35.43813
G1 X143.99 Y41.589 E35.45553
G1 X143.973 Y81.366 E35.95435
G1 X143.889 Y81.887 E35.96097
G1 X143.616 Y82.683 E35.97152
G1 X143.132 Y83.364 E35.982
G1 X142.414 Y83.89 E35.99316
G1 X141.554 Y84.139 E36.00439
G1 X91.406 Y84.136 E36.63326
G1 X90.576 Y83.892 E36.64411
G1 X90.273 Y83.726 E36.64845
G1 X89.508 Y82.947 E36.66214
G1 X89.115 Y81.991 E36.6751
G1 X89.014 Y81.252 E36.68445
G1 X89.03 Y41.862 E37.17842
G1 X89.173 Y41.048 E37.18878
G0 F15000 X89.557 Y41.172
G1 F1350 X89.964 Y40.322 E37.2006
G1 X90.919 Y39.476 E37.2166
G1 X141.542 Y39.476 E37.85143
G1 X142.361 Y39.707 E37.8621
G1 X143.199 Y40.496 E37.87654
G1 X143.59 Y41.655 E37.89188
G1 X143.578 Y81.302 E38.38906
G1 X143.494 Y81.823 E38.39568
G1 X143.258 Y82.496 E38.40462
G1 X142.843 Y83.08 E38.41361
G1 X142.234 Y83.526 E38.42308
G1 X141.498 Y83.739 E38.43268
G1 X91.465 Y83.736 E39.06012
G1 X90.689 Y83.508 E39.07026
G1 X90.517 Y83.404 E39.07278
G1 X89.849 Y82.724 E39.08473
G1 X89.504 Y81.886 E39.0961
G1 X89.414 Y81.252 E39.10413
G1 X89.424 Y41.931 E39.59723
G1 X89.557 Y41.172 E39.60689
G0 F15000 X89.941 Y41.296
G1 F1350 X90.291 Y40.566 E39.61704
G1 X91.07 Y39.876 E39.63009
G1 X141.486 Y39.876 E40.26233
G1 X142.159 Y40.066 E40.2711
G1 X142.852 Y40.718 E40.28303
G1 X143.19 Y41.721 E40.2963
G1 X143.183 Y81.238 E40.79186
G1 X143.099 Y81.759 E40.79848
G1 X142.9 Y82.309 E40.80581
G1 X142.554 Y82.796 E40.81331
G1 X142.054 Y83.162 E40.82108
G1 X141.442 Y83.339 E40.82907
G1 X91.524 Y83.336 E41.45506
G1 X90.802 Y83.124 E41.46449
G1 X90.19 Y82.501 E41.47544
G1 X89.894 Y81.782 E41.48519
G1 X89.814 Y81.252 E41.49192
G1 X89.818 Y42 E41.98415
G1 X89.941 Y41.296 E41.99311
G0 F15000 X90.718 Y41.492
G1 F1350 X90.943 Y41.056 E41.99927
G1 X91.372 Y40.676 E42.00645
G1 X141.431 Y40.676 E42.63421
G1 X141.754 Y40.782 E42.63847
G1 X142.158 Y41.162 E42.64543
G1 X142.39 Y41.852 E42.65456
G1 X142.39 Y81.133 E43.14716
G1 X142.347 Y81.487 E43.15163
G1 X142.165 Y81.99 E43.15834
G1 X141.976 Y82.253 E43.1624
G1 X141.703 Y82.458 E43.16668
G1 X141.386 Y82.539 E43.17078
G1 X91.582 Y82.536 E43.79534
G1 X91.226 Y82.415 E43.80006
G1 X90.872 Y82.054 E43.8064
G1 X90.671 Y81.567 E43.81301
G1 X90.61 Y81.192 E43.81777
G1 X90.612 Y42.069 E44.30839
G1 X90.718 Y41.492 E44.31574
G0 F15000 X90.325 Y41.42
G1 F1350 X90.618 Y40.81 E44.32423
G1 X91.221 Y40.276 E44.33433
G1 X141.431 Y40.276 E44.96398
G1 X141.957 Y40.424 E44.97083
G1 X142.505 Y40.94 E44.98027
G1 X142.79 Y41.787 E44.99148
G1 X142.787 Y81.181 E45.4855
G1 X142.723 Y81.623 E45.4911
G1 X142.541 Y82.126 E45.4978
G1 X142.301 Y82.486 E45.50323
G1 X141.943 Y82.778 E45.50902
G1 X141.386 Y82.939 E45.5163
G1 X91.582 Y82.936 E46.14086
G1 X91.013 Y82.769 E46.14829
G1 X90.531 Y82.278 E46.15692
G1 X90.283 Y81.676 E46.16509
G1 X90.21 Y81.192 E46.17122
G1 X90.212 Y42.069 E46.66184
G1 X90.325 Y41.42 E46.6701
G1 F1500 E40.1701
G0 F15000 X87.77 Y41.826
G0 X87.771 Y81.447
G0 X90.729 Y120.618
G1 F1500 E46.6701
G1 F1350 X142.408 Y120.619 E47.31818
G1 X145.258 Y121.514 E47.35564
G1 X147.252 Y123.344 E47.38958
G1 X148.399 Y125.119 E47.41608
G1 X149.028 Y127.057 E47.44163
G1 X149.19 Y128.844 E47.46413
G1 X149.13 Y168.858 E47.96592
G1 X148.878 Y170.076 E47.98152
G1 X148.265 Y171.923 E48.00592
G1 X146.568 Y174.153 E48.04107
G1 X145.908 Y174.693 E48.05176
G1 X142.977 Y176.081 E48.09243
G1 X90.781 Y176.081 E48.74699
G1 X88.918 Y175.633 E48.77101
G1 X86.35 Y174.174 E48.80805
G1 X84.738 Y171.858 E48.84344
G1 X83.989 Y169.776 E48.87119
G1 X83.81 Y167.864 E48.89527
G1 X83.85 Y127.954 E49.39575
G1 X84.171 Y126.449 E49.41505
G1 X84.792 Y124.626 E49.4392
G1 X86.389 Y122.638 E49.47118
G1 X88.419 Y121.256 E49.50198
G1 X90.729 Y120.618 E49.53203
G0 F15000 X90.784 Y121.018
G1 F1350 X142.345 Y121.019 E50.17862
G1 X145.053 Y121.869 E50.21422
G1 X146.945 Y123.606 E50.24643
G1 X148.035 Y125.293 E50.27161
G1 X148.634 Y127.138 E50.29594
G1 X148.79 Y128.843 E50.31741
G1 X148.73 Y168.816 E50.81869
G1 X148.498 Y169.95 E50.8332
G1 X147.905 Y171.736 E50.8568
G1 X146.28 Y173.872 E50.89046
G1 X145.693 Y174.352 E50.89997
G1 X142.886 Y175.681 E50.93891
G1 X90.828 Y175.681 E51.59174
G1 X89.068 Y175.258 E51.61444
G1 X86.626 Y173.87 E51.64967
G1 X85.095 Y171.671 E51.68327
G1 X84.382 Y169.69 E51.70967
G1 X84.21 Y167.864 E51.73267
G1 X84.25 Y127.995 E52.23264
G1 X84.55 Y126.578 E52.25081
G1 X85.148 Y124.822 E52.27407
G1 X86.664 Y122.935 E52.30442
G1 X88.589 Y121.624 E52.33363
G1 X90.784 Y121.018 E52.36219
G0 F15000 X90.84 Y121.418
G1 F1350 X142.282 Y121.419 E53.00729
G1 X144.849 Y122.225 E53.04103
G1 X146.637 Y123.866 E53.07146
G1 X147.672 Y125.468 E53.09538
G1 X148.24 Y127.218 E53.11845
G1 X148.39 Y128.842 E53.1389
G1 X148.33 Y168.776 E53.63969
G1 X148.118 Y169.824 E53.6531
G1 X147.545 Y171.549 E53.6759
G1 X145.992 Y173.591 E53.70807
G1 X145.478 Y174.011 E53.71639
G1 X142.795 Y175.281 E53.75362
G1 X90.876 Y175.281 E54.4047
G1 X89.217 Y174.882 E54.4261
G1 X86.902 Y173.566 E54.45949
G1 X85.452 Y171.484 E54.49131
G1 X84.775 Y169.603 E54.51638
G1 X84.61 Y167.864 E54.53828
G1 X84.65 Y128.035 E55.03775
G1 X84.929 Y126.707 E55.05477
G1 X85.504 Y125.018 E55.07715
G1 X86.939 Y123.232 E55.10588
G1 X88.759 Y121.993 E55.13349
G1 X90.84 Y121.418 E55.16056
G0 F15000 X90.895 Y121.818
G1 F1350 X142.219 Y121.819 E55.80418
G1 X144.644 Y122.58 E55.83606
G1 X146.33 Y124.128 E55.86476
G1 X147.309 Y125.643 E55.88738
G1 X147.846 Y127.298 E55.9092
G1 X147.99 Y128.841 E55.92863
G1 X147.93 Y168.737 E56.42894
G1 X147.738 Y169.698 E56.44123
G1 X147.185 Y171.362 E56.46322
G1 X145.704 Y173.31 E56.49391
G1 X145.263 Y173.67 E56.50105
G1 X142.704 Y174.881 E56.53655
G1 X90.923 Y174.881 E57.1859
G1 X89.367 Y174.507 E57.20597
G1 X87.178 Y173.262 E57.23755
G1 X85.809 Y171.297 E57.26759
G1 X85.168 Y169.516 E57.29132
G1 X85.01 Y167.864 E57.31213
G1 X85.05 Y128.078 E57.81107
G1 X85.308 Y126.836 E57.82697
G1 X85.861 Y125.212 E57.84849
G1 X87.212 Y123.53 E57.87554
G1 X88.929 Y122.361 E57.90159
G1 X90.895 Y121.818 E57.92717
G0 F15000 X90.95 Y122.218
G1 F1350 X142.156 Y122.219 E58.56931
G1 X144.44 Y122.936 E58.59933
G1 X146.022 Y124.388 E58.62626
G1 X146.946 Y125.818 E58.64761
