;START_OF_HEADER
;HEADER_VERSION:0.1
;FLAVOR:Griffin
;GENERATOR.NAME:Cura_SteamEngine
;GENERATOR.VERSION:5.7.0
;GENERATOR.BUILD_DATE:2024-04-02
;TARGET_MACHINE.NAME:Ultimaker 3 Extended
;EXTRUDER_TRAIN.0.INITIAL_TEMPERATURE:200
;EXTRUDER_TRAIN.0.MATERIAL.VOLUME_USED:4854
;EXTRUDER_TRAIN.0.MATERIAL.GUID:506c9f0d-e3aa-4bd4-b2d2-23e2425b1aa9
;EXTRUDER_TRAIN.0.NOZZLE.DIAMETER:0.4
;EXTRUDER_TRAIN.0.NOZZLE.NAME:AA 0.4
;BUILD_PLATE.INITIAL_TEMPERATURE:60
;PRINT.TIME:3146
;PRINT.GROUPS:1
;PRINT.SIZE.MIN.X:9
;PRINT.SIZE.MIN.Y:6
;PRINT.SIZE.MIN.Z:0.2
;PRINT.SIZE.MAX.X:150.859
;PRINT.SIZE.MAX.Y:135.759
;PRINT.SIZE.MAX.Z:6.95
;SLICE_UUID:1c92e0df-1bcc-4e37-9af9-65add346cc0d
;END_OF_HEADER
;Generated with Cura_SteamEngine 5.7.0
T0
M82 ;absolute extrusion mode

G92 E0
M190 S60
M109 S200
G0 F15000 X9 Y6 Z2
G280
G1 F1500 E-6.5
;LAYER_COUNT:49
;LAYER:0
M106 S255
M204 S1000
M205 X20 Y20
G1 F600 Z2.2
G0 F15000 X84.176 Y81.653 Z2.2
;TYPE:SKIRT
G1 F600 Z0.2
G1 F1500 E0
G1 F1350 X86.015 Y80.166 E0.02966
G1 X88.546 Y79.244 E0.06344
G1 X143.979 Y79.241 E0.75859
G1 X146.208 Y79.742 E0.78724
G1 X148.149 Y81.051 E0.8166
G1 X149.517 Y82.469 E0.84131
G1 X150.638 Y84.932 E0.87524
G1 X150.859 Y87.111 E0.90271
G1 X150.856 Y128.821 E1.42577
G1 X150.263 Y131.18 E1.45627
G1 X148.824 Y133.347 E1.48889
G1 X146.985 Y134.834 E1.51855
G1 X144.454 Y135.756 E1.55233
G1 X89.021 Y135.759 E2.24748
G1 X86.792 Y135.258 E2.27613
G1 X84.851 Y133.949 E2.30549
G1 X83.483 Y132.531 E2.33019
G1 X82.362 Y130.068 E2.36413
G1 X82.141 Y127.889 E2.3916
G1 X82.144 Y86.179 E2.91465
G1 X82.737 Y83.82 E2.94516
G1 X84.176 Y81.653 E2.97778
G0 F15000 X84.474 Y81.927
G1 F1350 X86.215 Y80.519 E3.00586
G1 X88.617 Y79.644 E3.03792
G1 X143.936 Y79.641 E3.73164
G1 X146.045 Y80.115 E3.75874
G1 X147.891 Y81.36 E3.78667
G1 X149.182 Y82.698 E3.80998
G1 X150.247 Y85.038 E3.84222
G1 X150.459 Y87.111 E3.86836
G1 X150.456 Y128.772 E4.3908
G1 X149.892 Y131.017 E4.41983
G1 X148.526 Y133.073 E4.45078
G1 X146.785 Y134.481 E4.47886
G1 X144.383 Y135.356 E4.51092
G1 X89.064 Y135.359 E5.20464
G1 X86.955 Y134.885 E5.23175
G1 X85.109 Y133.64 E5.25967
G1 X83.818 Y132.302 E5.28299
G1 X82.753 Y129.962 E5.31523
G1 X82.541 Y127.889 E5.34136
G1 X82.544 Y86.228 E5.8638
G1 X83.108 Y83.983 E5.89283
G1 X84.474 Y81.927 E5.92379
G0 F15000 X84.773 Y82.199
G1 F1350 X86.413 Y80.873 E5.95023
G1 X88.688 Y80.044 E5.9806
G1 X143.893 Y80.041 E6.67289
G1 X145.882 Y80.488 E6.69845
G1 X147.633 Y81.669 E6.72494
G1 X148.847 Y82.927 E6.74686
G1 X149.856 Y85.144 E6.77741
G1 X150.059 Y87.111 E6.80221
G1 X150.056 Y128.722 E7.32403
G1 X149.52 Y130.854 E7.35159
G1 X148.227 Y132.801 E7.3809
G1 X146.587 Y134.127 E7.40735
G1 X144.312 Y134.956 E7.43772
G1 X89.107 Y134.959 E8.13001
G1 X87.118 Y134.512 E8.15557
G1 X85.367 Y133.331 E8.18206
G1 X84.153 Y132.073 E8.20398
G1 X83.144 Y129.856 E8.23453
G1 X82.941 Y127.889 E8.25932
G1 X82.944 Y86.278 E8.78114
G1 X83.48 Y84.146 E8.80871
G1 X84.773 Y82.199 E8.83802
G0 F15000 X85.071 Y82.473
G1 F1350 X86.613 Y81.226 E8.86289
G1 X88.759 Y80.444 E8.89153
G1 X143.85 Y80.441 E9.58239
G1 X145.719 Y80.861 E9.60642
G1 X147.375 Y81.978 E9.63147
G1 X148.512 Y83.156 E9.652
G1 X149.465 Y85.25 E9.68085
G1 X149.659 Y87.111 E9.70431
G1 X149.656 Y128.673 E10.22551
G1 X149.149 Y130.691 E10.25161
G1 X147.929 Y132.527 E10.27925
G1 X146.387 Y133.774 E10.30412
G1 X144.241 Y134.556 E10.33276
G1 X89.15 Y134.559 E11.02362
G1 X87.281 Y134.139 E11.04765
G1 X85.625 Y133.022 E11.0727
G1 X84.488 Y131.844 E11.09323
G1 X83.535 Y129.75 E11.12208
G1 X83.341 Y127.889 E11.14554
G1 X83.344 Y86.327 E11.66675
G1 X83.851 Y84.309 E11.69284
G1 X85.071 Y82.473 E11.72048
G0 F15000 X85.37 Y82.745
G1 F1350 X86.811 Y81.58 E11.74372
G1 X88.83 Y80.844 E11.77067
G1 X143.807 Y80.841 E12.4601
G1 X145.556 Y81.234 E12.48258
G1 X147.117 Y82.287 E12.50619
G1 X148.177 Y83.385 E12.52533
G1 X149.074 Y85.356 E12.55249
G1 X149.259 Y87.111 E12.57462
G1 X149.256 Y128.623 E13.0952
G1 X148.777 Y130.528 E13.11983
G1 X147.63 Y132.255 E13.14583
G1 X146.189 Y133.42 E13.16906
G1 X144.17 Y134.156 E13.19601
G1 X89.193 Y134.159 E13.88545
G1 X87.444 Y133.766 E13.90793
G1 X85.883 Y132.713 E13.93154
G1 X84.823 Y131.615 E13.95068
G1 X83.926 Y129.644 E13.97783
G1 X83.741 Y127.889 E13.99996
G1 X83.744 Y86.377 E14.52054
G1 X84.223 Y84.472 E14.54517
G1 X85.37 Y82.745 E14.57117
G0 F15000 X85.668 Y83.019
G1 F1350 X87.011 Y81.933 E14.59283
G1 X88.901 Y81.244 E14.61806
G1 X143.764 Y81.241 E15.30606
G1 X145.393 Y81.607 E15.327
G1 X146.859 Y82.596 E15.34917
G1 X147.842 Y83.614 E15.36692
G1 X148.683 Y85.462 E15.39238
G1 X148.859 Y87.111 E15.41318
G1 X148.856 Y128.574 E15.93314
G1 X148.406 Y130.365 E15.9563
G1 X147.332 Y131.981 E15.98063
G1 X145.989 Y133.067 E16.00229
G1 X144.099 Y133.756 E16.02752
G1 X89.236 Y133.759 E16.71552
G1 X87.607 Y133.393 E16.73646
G1 X86.141 Y132.404 E16.75863
G1 X85.158 Y131.386 E16.77638
G1 X84.317 Y129.538 E16.80184
G1 X84.141 Y127.889 E16.82264
G1 X84.144 Y86.426 E17.3426
G1 X84.594 Y84.635 E17.36576
G1 X85.668 Y83.019 E17.39009
G0 F15000 X85.966 Y83.293
G1 F1350 X87.211 Y82.286 E17.41017
G1 X88.972 Y81.644 E17.43368
G1 X143.721 Y81.641 E18.12025
G1 X145.23 Y81.98 E18.13964
G1 X146.601 Y82.905 E18.16038
G1 X147.507 Y83.843 E18.17674
G1 X148.292 Y85.568 E18.2005
G1 X148.459 Y87.111 E18.21997
G1 X148.456 Y128.524 E18.7393
G1 X148.034 Y130.202 E18.761
G1 X147.034 Y131.707 E18.78366
G1 X145.789 Y132.714 E18.80374
G1 X144.028 Y133.356 E18.82724
G1 X89.279 Y133.359 E19.51382
G1 X87.77 Y133.02 E19.53321
G1 X86.399 Y132.095 E19.55395
G1 X85.493 Y131.157 E19.57031
G1 X84.708 Y129.432 E19.59407
G1 X84.541 Y127.889 E19.61354
G1 X84.544 Y86.476 E20.13287
G1 X84.966 Y84.798 E20.15457
G1 X85.966 Y83.293 E20.17723
G0 F15000 X86.265 Y83.565
G1 F1350 X87.409 Y82.64 E20.19568
G1 X89.043 Y82.044 E20.21749
G1 X143.678 Y82.041 E20.90263
G1 X145.067 Y82.353 E20.92048
G1 X146.343 Y83.214 E20.93979
G1 X147.172 Y84.072 E20.95475
G1 X147.901 Y85.674 E20.97682
G1 X148.059 Y87.111 E20.99495
G1 X148.056 Y128.475 E21.51367
G1 X147.663 Y130.039 E21.53389
G1 X146.735 Y131.435 E21.55491
G1 X145.591 Y132.36 E21.57336
G1 X143.957 Y132.956 E21.59518
G1 X89.322 Y132.959 E22.28032
G1 X87.933 Y132.647 E22.29817
G1 X86.657 Y131.786 E22.31747
G1 X85.828 Y130.928 E22.33244
G1 X85.099 Y129.326 E22.35451
G1 X84.941 Y127.889 E22.37264
G1 X84.944 Y86.525 E22.89136
G1 X85.337 Y84.961 E22.91158
G1 X86.265 Y83.565 E22.9326
G0 F15000 X86.563 Y83.839
G1 F1350 X87.609 Y82.993 E22.94947
G1 X89.114 Y82.444 E22.96956
G1 X143.635 Y82.441 E23.65328
G1 X144.904 Y82.726 E23.66959
G1 X146.085 Y83.523 E23.68745
G1 X146.837 Y84.301 E23.70102
G1 X147.51 Y85.78 E23.7214
G1 X147.659 Y87.111 E23.73819
G1 X147.656 Y128.425 E24.25629
G1 X147.291 Y129.876 E24.27505
G1 X146.437 Y131.161 E24.2944
G1 X145.391 Y132.007 E24.31127
G1 X143.886 Y132.556 E24.33136
G1 X89.365 Y132.559 E25.01507
G1 X88.096 Y132.274 E25.03138
G1 X86.915 Y131.477 E25.04925
G1 X86.163 Y130.699 E25.06282
G1 X85.49 Y129.22 E25.0832
G1 X85.341 Y127.889 E25.09999
G1 X85.344 Y86.575 E25.61808
G1 X85.709 Y85.124 E25.63685
G1 X86.563 Y83.839 E25.6562
G0 F15000 X86.862 Y84.111
G1 F1350 X87.807 Y83.347 E25.67144
G1 X89.185 Y82.844 E25.68983
G1 X143.592 Y82.841 E26.37211
G1 X144.741 Y83.099 E26.38688
G1 X145.827 Y83.832 E26.40331
G1 X146.502 Y84.53 E26.41549
G1 X147.12 Y85.889 E26.43421
G1 X147.259 Y87.111 E26.44963
G1 X147.256 Y128.376 E26.96711
G1 X146.92 Y129.713 E26.9844
G1 X146.138 Y130.889 E27.00211
G1 X145.193 Y131.653 E27.01735
G1 X143.815 Y132.156 E27.03575
G1 X89.408 Y132.159 E27.71803
G1 X88.259 Y131.901 E27.7328
G1 X87.173 Y131.168 E27.74923
G1 X86.498 Y130.47 E27.76141
G1 X85.88 Y129.111 E27.78013
G1 X85.741 Y127.889 E27.79555
G1 X85.744 Y86.624 E28.31303
G1 X86.08 Y85.287 E28.33032
G1 X86.862 Y84.111 E28.34803
G0 F15000 X87.16 Y84.385
G1 F1350 X88.007 Y83.7 E28.36169
G1 X89.256 Y83.244 E28.37836
G1 X143.549 Y83.241 E29.05922
G1 X144.578 Y83.472 E29.07244
G1 X145.572 Y84.143 E29.08748
G1 X146.167 Y84.758 E29.09821
G1 X146.73 Y85.997 E29.11528
G1 X146.859 Y87.111 E29.12934
G1 X146.856 Y128.326 E29.64619
G1 X146.548 Y129.55 E29.66202
G1 X145.84 Y130.615 E29.67806
G1 X144.993 Y131.3 E29.69172
G1 X143.744 Y131.756 E29.70839
G1 X89.451 Y131.759 E30.38925
G1 X88.422 Y131.528 E30.40247
G1 X87.428 Y130.857 E30.41751
G1 X86.833 Y130.242 E30.42824
G1 X86.27 Y129.003 E30.44531
G1 X86.141 Y127.889 E30.45937
G1 X86.144 Y86.674 E30.97622
G1 X86.452 Y85.45 E30.99205
G1 X87.16 Y84.385 E31.00809
G0 F15000 X87.458 Y84.659
G1 F1350 X88.207 Y84.053 E31.02017
G1 X89.327 Y83.644 E31.03512
G1 X143.506 Y83.641 E31.71455
G1 X144.415 Y83.845 E31.72623
G1 X145.317 Y84.454 E31.73988
G1 X145.832 Y84.986 E31.74916
G1 X146.34 Y86.105 E31.76458
G1 X146.459 Y87.111 E31.77728
G1 X146.456 Y128.276 E32.2935
G1 X146.176 Y129.387 E32.30787
G1 X145.542 Y130.341 E32.32224
G1 X144.793 Y130.947 E32.33432
G1 X143.673 Y131.356 E32.34927
G1 X89.494 Y131.359 E33.0287
G1 X88.585 Y131.155 E33.04038
G1 X87.683 Y130.546 E33.05403
G1 X87.168 Y130.014 E33.06331
G1 X86.66 Y128.895 E33.07872
G1 X86.541 Y127.889 E33.09143
G1 X86.544 Y86.724 E33.60765
G1 X86.824 Y85.613 E33.62202
G1 X87.458 Y84.659 E33.63638
G0 F15000 X87.757 Y84.932
G1 F1350 X88.407 Y84.406 E33.64687
G1 X89.398 Y84.044 E33.6601
G1 X143.464 Y84.041 E34.33811
G1 X144.254 Y84.218 E34.34826
G1 X145.056 Y84.76 E34.3604
G1 X145.497 Y85.216 E34.36835
G1 X145.95 Y86.213 E34.38209
G1 X146.059 Y87.111 E34.39343
G1 X146.056 Y128.226 E34.90903
G1 X145.805 Y129.223 E34.92192
G1 X145.243 Y130.068 E34.93465
G1 X144.593 Y130.594 E34.94513
G1 X143.602 Y130.956 E34.95836
G1 X89.536 Y130.959 E35.63637
G1 X88.746 Y130.782 E35.64652
G1 X87.944 Y130.24 E35.65866
G1 X87.503 Y129.784 E35.66662
G1 X87.05 Y128.787 E35.68035
G1 X86.941 Y127.889 E35.69169
G1 X86.944 Y86.774 E36.20729
G1 X87.195 Y85.777 E36.22018
G1 X87.757 Y84.932 E36.23291
G0 F15000 X88.055 Y85.206
G1 F1350 X88.607 Y84.759 E36.24182
G1 X89.469 Y84.444 E36.25333
G1 X143.422 Y84.441 E36.92992
G1 X144.093 Y84.591 E36.93854
G1 X144.798 Y85.068 E36.94921
G1 X145.162 Y85.444 E36.95578
G1 X145.56 Y86.321 E36.96785
G1 X145.659 Y87.111 E36.97784
G1 X145.656 Y128.176 E37.49281
G1 X145.433 Y129.06 E37.50424
G1 X144.945 Y129.794 E37.5153
G1 X144.393 Y130.241 E37.5242
G1 X143.531 Y130.556 E37.53571
G1 X89.578 Y130.559 E38.2123
G1 X88.907 Y130.409 E38.22092
G1 X88.202 Y129.932 E38.2316
G1 X87.838 Y129.556 E38.23816
G1 X87.44 Y128.679 E38.25024
G1 X87.341 Y127.889 E38.26022
G1 X87.344 Y86.824 E38.77519
G1 X87.567 Y85.94 E38.78663
G1 X88.055 Y85.206 E38.79768
G0 F15000 X88.353 Y85.48
G1 F1350 X88.807 Y85.112 E38.80501
G1 X89.54 Y84.844 E38.8148
G1 X143.379 Y84.841 E39.48996
G1 X143.932 Y84.965 E39.49706
G1 X144.574 Y85.399 E39.50678
G1 X144.827 Y85.672 E39.51145
G1 X145.17 Y86.429 E39.52187
G1 X145.259 Y87.111 E39.5305
G1 X145.256 Y128.125 E40.04483
G1 X145.061 Y128.897 E40.05481
G1 X144.647 Y129.52 E40.06419
G1 X144.193 Y129.888 E40.07152
G1 X143.46 Y130.156 E40.08131
G1 X89.621 Y130.159 E40.75647
G1 X89.068 Y130.035 E40.76358
G1 X88.426 Y129.601 E40.7733
G1 X88.173 Y129.328 E40.77796
G1 X87.83 Y128.571 E40.78839
G1 X87.741 Y127.889 E40.79701
G1 X87.744 Y86.875 E41.31134
G1 X87.939 Y86.103 E41.32133
G1 X88.353 Y85.48 E41.33071
G0 F15000 X88.657 Y85.745
G1 F1350 X88.944 Y85.488 E41.33554
G1 X89.611 Y85.244 E41.34444
G1 X143.379 Y85.241 E42.01871
G1 X143.771 Y85.339 E42.02378
G1 X144.35 Y85.73 E42.03254
G1 X144.49 Y85.897 E42.03528
G1 X144.782 Y86.54 E42.04413
G1 X144.859 Y87.111 E42.05136
G1 X144.856 Y128.074 E42.56505
G1 X144.689 Y128.734 E42.57359
G1 X144.343 Y129.255 E42.58143
G1 X144.056 Y129.512 E42.58626
G1 X143.389 Y129.756 E42.59517
G1 X89.621 Y129.759 E43.26944
G1 X89.229 Y129.661 E43.2745
G1 X88.65 Y129.27 E43.28327
G1 X88.51 Y129.103 E43.286
G1 X88.218 Y128.46 E43.29485
G1 X88.141 Y127.889 E43.30208
G1 X88.144 Y86.926 E43.81577
G1 X88.311 Y86.266 E43.82431
G1 X88.657 Y85.745 E43.83215
G0 F15000 X89.311 Y86.205
G1 F1350 X89.682 Y86.044 E43.83722
G1 X143.379 Y86.041 E44.5106
G1 X143.81 Y86.332 E44.51713
G1 X143.998 Y86.71 E44.52242
G1 X144.059 Y87.111 E44.52751
G1 X144.056 Y127.972 E45.03992
G1 X143.929 Y128.473 E45.0464
G1 X143.689 Y128.795 E45.05144
G1 X143.318 Y128.956 E45.05651
G1 X89.621 Y128.959 E45.72989
G1 X89.19 Y128.668 E45.73641
G1 X89.002 Y128.29 E45.7417
G1 X88.941 Y127.889 E45.74679
G1 X88.944 Y87.028 E46.2592
G1 X89.071 Y86.527 E46.26568
G1 X89.311 Y86.205 E46.27072
G0 F15000 X89.152 Y85.838
G1 F1350 X89.682 Y85.644 E46.2778
G1 X143.379 Y85.641 E46.95118
G1 X143.603 Y85.709 E46.95411
G1 X144.126 Y86.062 E46.96203
G1 X144.393 Y86.65 E46.97012
G1 X144.459 Y87.111 E46.97596
G1 X144.456 Y128.023 E47.48902
G1 X144.317 Y128.571 E47.49611
G1 X144.01 Y129.034 E47.50307
G1 X143.848 Y129.162 E47.50566
G1 X143.318 Y129.356 E47.51274
G1 X89.621 Y129.359 E48.18612
G1 X89.397 Y129.291 E48.18906
G1 X88.874 Y128.938 E48.19697
G1 X88.607 Y128.35 E48.20507
G1 X88.541 Y127.889 E48.21091
G1 X88.544 Y86.977 E48.72396
G1 X88.683 Y86.429 E48.73105
G1 X88.99 Y85.966 E48.73801
G1 X89.152 Y85.838 E48.7406
M204 S429
G1 F1500 E42.2406
G1 F600 Z2.2
;MESH:flat_case_6mm_noindent.stl
G0 F15000 X127.844 Y100.236 Z2.2
;TYPE:WALL-OUTER
G1 F600 Z0.2
G1 F1500 E48.7406
G1 F1350 X127.083 Y100.091 E48.75129
G1 X126.485 Y99.841 E48.76023
G1 X125.956 Y99.491 E48.76898
G1 X125.511 Y99.04 E48.77772
G1 X125.158 Y98.514 E48.78646
G1 X124.862 Y97.796 E48.79717
G1 X124.765 Y96.846 E48.81035
G1 X124.915 Y96.096 E48.8209
G1 X125.159 Y95.498 E48.82981
G1 X125.53 Y94.95 E48.83893
G1 X125.972 Y94.513 E48.84751
G1 X126.502 Y94.163 E48.85627
G1 X127.221 Y93.866 E48.867
G1 X128.157 Y93.773 E48.87998
G1 X128.903 Y93.919 E48.89046
G1 X129.498 Y94.163 E48.89933
G1 X130.053 Y94.537 E48.90856
G1 X130.469 Y94.949 E48.91664
G1 X130.841 Y95.51 E48.92593
G1 X131.137 Y96.219 E48.93652
G1 X131.231 Y97.165 E48.94964
G1 X131.045 Y98.092 E48.96268
G1 X130.681 Y98.779 E48.97341
G1 X130.274 Y99.274 E48.98225
G1 X129.805 Y99.666 E48.99068
G1 X129.23 Y99.975 E48.99968
G1 X128.621 Y100.158 E49.00845
G1 X127.844 Y100.236 E49.01923
G0 F15000 X127.648 Y100.199
G1 F1500 E42.51923
G1 F600 Z2.2
G0 F15000 X143.268 Y128.555 Z2.2
G1 F600 Z0.2
G1 F1500 E49.01923
G1 F1350 X143.461 Y128.459 E49.0222
G1 X143.656 Y127.945 E49.02978
G1 X143.656 Y87.12 E49.59294
G1 X143.607 Y86.808 E49.5973
G1 X143.476 Y86.559 E49.60118
G1 X143.311 Y86.44 E49.60398
G1 X89.726 Y86.444 E50.34316
G1 X89.535 Y86.537 E50.34609
G1 X89.344 Y87.054 E50.35369
G1 X89.341 Y127.876 E50.91681
G1 X89.389 Y128.192 E50.92121
G1 X89.519 Y128.44 E50.92508
G1 X89.684 Y128.556 E50.92786
G1 X143.268 Y128.555 E51.66702
M204 S1000
G0 F15000 X143.446 Y128.467
G1 F1500 E45.16702
G1 F600 Z2.2
G0 F15000 X127.813 Y100.642 Z2.2
;TYPE:WALL-INNER
G1 F600 Z0.2
G1 F1500 E51.66702
G1 F1350 X126.927 Y100.461 E51.67779
G1 X126.272 Y100.18 E51.68628
G1 X125.702 Y99.8 E51.69444
G1 X125.225 Y99.322 E51.70249
G1 X124.808 Y98.715 E51.71126
G1 X124.466 Y97.889 E51.72191
G1 X124.362 Y96.833 E51.73455
G1 X124.534 Y95.962 E51.74513
G1 X124.806 Y95.31 E51.75355
G1 X125.208 Y94.706 E51.76219
G1 X125.698 Y94.216 E51.77045
G1 X126.296 Y93.815 E51.77902
G1 X127.102 Y93.477 E51.78944
G1 X128.188 Y93.372 E51.80244
G1 X129.041 Y93.539 E51.81279
G1 X129.707 Y93.817 E51.82139
G1 X130.296 Y94.214 E51.82985
G1 X130.794 Y94.707 E51.8382
G1 X131.187 Y95.306 E51.84673
G1 X131.529 Y96.121 E51.85726
G1 X131.635 Y97.185 E51.87
G1 X131.428 Y98.229 E51.88268
G1 X131.002 Y99.02 E51.89338
G1 X130.557 Y99.557 E51.90169
G1 X130.009 Y100.012 E51.91018
G1 X129.393 Y100.341 E51.9185
G1 X128.685 Y100.553 E51.9273
G1 X127.813 Y100.642 E51.93775
G1 F1500 E45.43775
G1 F600 Z2.2
G0 F15000 X89.821 Y128.156 Z2.2
G1 F600 Z0.2
G1 F1500 E51.93775
G1 F1350 X143.185 Y128.149 E52.57349
G1 X143.256 Y127.892 E52.57667
G1 X143.256 Y87.151 E53.06203
G1 X143.172 Y86.84 E53.06587
G1 X89.81 Y86.847 E53.70159
G1 X89.744 Y87.106 E53.70477
G1 X89.741 Y127.846 E54.19012
G1 X89.821 Y128.156 E54.19393
G0 F15000 X90.081 Y127.815
;TYPE:SKIN
G1 F1350 X142.916 Y127.812 E54.7919
G1 X142.916 Y87.18 E55.25176
G1 X90.084 Y87.18 E55.8497
G1 X90.081 Y127.815 E56.30959
