;START_OF_HEADER
;HEADER_VERSION:0.1
;FLAVOR:Griffin
;GENERATOR.NAME:Cura_SteamEngine
;GENERATOR.VERSION:5.7.0
;GENERATOR.BUILD_DATE:2024-04-02
;TARGET_MACHINE.NAME:Ultimaker 3 Extended
;EXTRUDER_TRAIN.0.INITIAL_TEMPERATURE:200
;EXTRUDER_TRAIN.0.MATERIAL.VOLUME_USED:8798
;EXTRUDER_TRAIN.0.MATERIAL.GUID:506c9f0d-e3aa-4bd4-b2d2-23e2425b1aa9
;EXTRUDER_TRAIN.0.NOZZLE.DIAMETER:0.4
;EXTRUDER_TRAIN.0.NOZZLE.NAME:AA 0.4
;BUILD_PLATE.INITIAL_TEMPERATURE:60
;PRINT.TIME:4971
;PRINT.GROUPS:1
;PRINT.SIZE.MIN.X:9
;PRINT.SIZE.MIN.Y:6
;PRINT.SIZE.MIN.Z:0.2
;PRINT.SIZE.MAX.X:150.88
;PRINT.SIZE.MAX.Y:135.794
;PRINT.SIZE.MAX.Z:12.05
;SLICE_UUID:5d6899a4-7340-4012-b958-ca83a33e8d75
;END_OF_HEADER
;Generated with Cura_SteamEngine 5.7.0
T0
M82 ;absolute extrusion mode

G92 E0
M190 S60
M109 S200
G0 F15000 X9 Y6 Z2
G280
G1 F1500 E-6.5
;LAYER_COUNT:80
;LAYER:0
M106 S255
M204 S1000
M205 X20 Y20
G1 F600 Z2.2
G0 F15000 X84.344 Y81.522 Z2.2
;TYPE:SKIRT
G1 F600 Z0.2
G1 F1500 E0
G1 F1350 X86.133 Y80.013 E0.02935
G1 X88.771 Y79.207 E0.06394
G1 X144.274 Y79.208 E0.75997
G1 X146.276 Y79.839 E0.78629
G1 X148.232 Y80.974 E0.81465
G1 X150.047 Y83.322 E0.85187
G1 X150.88 Y85.925 E0.88614
G1 X150.878 Y128.679 E1.42229
G1 X150.365 Y130.949 E1.45148
G1 X148.905 Y133.371 E1.48694
G1 X146.386 Y135.259 E1.52642
G1 X143.998 Y135.792 E1.5571
G1 X89.032 Y135.794 E2.2464
G1 X87.016 Y135.335 E2.27232
G1 X84.408 Y133.773 E2.31045
G1 X82.848 Y131.347 E2.34662
G1 X82.12 Y129.062 E2.37669
G1 X82.122 Y86.321 E2.91268
G1 X82.722 Y83.671 E2.94675
G1 X84.344 Y81.522 E2.98052
G0 F15000 X84.635 Y81.8
G1 F1350 X86.328 Y80.372 E3.00829
G1 X88.832 Y79.607 E3.04112
G1 X144.214 Y79.608 E3.73563
G1 X146.111 Y80.206 E3.76058
G1 X147.964 Y81.281 E3.78744
G1 X149.687 Y83.51 E3.82277
G1 X150.48 Y85.988 E3.8554
G1 X150.478 Y128.635 E4.39021
G1 X149.99 Y130.795 E4.41798
G1 X148.601 Y133.099 E4.45172
G1 X146.214 Y134.888 E4.48912
G1 X143.956 Y135.392 E4.51814
G1 X89.077 Y135.394 E5.20634
G1 X87.167 Y134.959 E5.23091
G1 X84.693 Y133.477 E5.26707
G1 X83.213 Y131.176 E5.30138
G1 X82.52 Y129.001 E5.33001
G1 X82.522 Y86.365 E5.86468
G1 X83.093 Y83.843 E5.89711
G1 X84.635 Y81.8 E5.9292
G0 F15000 X84.926 Y82.078
G1 F1350 X86.523 Y80.731 E5.9554
G1 X88.893 Y80.007 E5.98648
G1 X144.151 Y80.008 E6.67944
G1 X145.95 Y80.575 E6.70309
G1 X147.696 Y81.588 E6.7284
G1 X149.327 Y83.698 E6.76185
G1 X150.08 Y86.051 E6.79283
G1 X150.078 Y128.591 E7.3263
G1 X149.615 Y130.641 E7.35265
G1 X148.297 Y132.827 E7.38466
G1 X146.042 Y134.517 E7.42
G1 X143.914 Y134.992 E7.44734
G1 X89.122 Y134.994 E8.13446
G1 X87.318 Y134.583 E8.15766
G1 X84.978 Y133.181 E8.19187
G1 X83.578 Y131.005 E8.22431
G1 X82.92 Y128.94 E8.25149
G1 X82.922 Y86.409 E8.78485
G1 X83.464 Y84.015 E8.81563
G1 X84.926 Y82.078 E8.84606
G0 F15000 X85.217 Y82.356
G1 F1350 X86.718 Y81.09 E8.87069
G1 X88.954 Y80.407 E8.90001
G1 X144.091 Y80.408 E9.59144
G1 X145.785 Y80.942 E9.61372
G1 X147.428 Y81.895 E9.63754
G1 X148.967 Y83.886 E9.66909
G1 X149.68 Y86.114 E9.69843
G1 X149.678 Y128.547 E10.23056
G1 X149.24 Y130.487 E10.2555
G1 X147.993 Y132.555 E10.28578
G1 X145.87 Y134.146 E10.31905
G1 X143.872 Y134.592 E10.34472
G1 X89.167 Y134.594 E11.03074
G1 X87.469 Y134.207 E11.05258
G1 X85.263 Y132.885 E11.08483
G1 X83.943 Y130.834 E11.11542
G1 X83.32 Y128.879 E11.14115
G1 X83.322 Y86.453 E11.67319
G1 X83.835 Y84.187 E11.70232
G1 X85.217 Y82.356 E11.73109
G0 F15000 X85.508 Y82.634
G1 F1350 X86.913 Y81.449 E11.75414
G1 X89.015 Y80.807 E11.7817
G1 X144.028 Y80.808 E12.47159
G1 X145.624 Y81.311 E12.49257
G1 X147.16 Y82.202 E12.51484
G1 X148.607 Y84.074 E12.54451
G1 X149.28 Y86.177 E12.5722
G1 X149.278 Y128.503 E13.10298
G1 X148.865 Y130.333 E13.12651
G1 X147.689 Y132.283 E13.15507
G1 X145.698 Y133.775 E13.18627
G1 X143.83 Y134.192 E13.21027
G1 X89.212 Y134.194 E13.8952
G1 X87.62 Y133.831 E13.91568
G1 X85.548 Y132.589 E13.94597
G1 X84.309 Y130.664 E13.97468
G1 X83.72 Y128.817 E13.99899
G1 X83.722 Y86.497 E14.5297
G1 X84.206 Y84.359 E14.55719
G1 X85.508 Y82.634 E14.58429
G0 F15000 X85.799 Y82.912
G1 F1350 X87.108 Y81.808 E14.60576
G1 X89.076 Y81.207 E14.63157
G1 X143.968 Y81.208 E15.31994
G1 X145.459 Y81.678 E15.33954
G1 X146.892 Y82.509 E15.36031
G1 X148.247 Y84.262 E15.3881
G1 X148.88 Y86.24 E15.41414
G1 X148.878 Y128.459 E15.94358
G1 X148.49 Y130.179 E15.9657
G1 X147.385 Y132.011 E15.99253
G1 X145.526 Y133.404 E16.02166
G1 X143.788 Y133.792 E16.04399
G1 X89.257 Y133.794 E16.72783
G1 X87.771 Y133.455 E16.74694
G1 X85.834 Y132.294 E16.77526
G1 X84.674 Y130.492 E16.80214
G1 X84.12 Y128.755 E16.825
G1 X84.122 Y86.541 E17.35438
G1 X84.577 Y84.531 E17.38022
G1 X85.799 Y82.912 E17.40566
G0 F15000 X86.09 Y83.19
G1 F1350 X87.303 Y82.167 E17.42556
G1 X89.137 Y81.607 E17.44961
G1 X143.905 Y81.608 E18.13642
G1 X145.298 Y82.047 E18.15473
G1 X146.624 Y82.816 E18.17395
G1 X147.887 Y84.45 E18.19985
G1 X148.48 Y86.303 E18.22425
G1 X148.478 Y128.415 E18.75235
G1 X148.115 Y130.025 E18.77305
G1 X147.081 Y131.739 E18.79815
G1 X145.354 Y133.033 E18.82521
G1 X143.746 Y133.392 E18.84587
G1 X89.302 Y133.394 E19.52862
G1 X87.922 Y133.079 E19.54637
G1 X86.12 Y131.999 E19.57272
G1 X85.039 Y130.32 E19.59776
G1 X84.52 Y128.693 E19.61918
G1 X84.522 Y86.585 E20.14723
G1 X84.948 Y84.703 E20.17142
G1 X86.09 Y83.19 E20.1952
G0 F15000 X86.381 Y83.468
G1 F1350 X87.498 Y82.526 E20.21352
G1 X89.198 Y82.007 E20.23581
G1 X143.842 Y82.008 E20.92107
G1 X145.137 Y82.416 E20.93809
G1 X146.356 Y83.123 E20.95576
G1 X147.527 Y84.638 E20.97978
G1 X148.08 Y86.366 E21.00253
G1 X148.078 Y128.371 E21.52929
G1 X147.739 Y129.874 E21.54861
G1 X146.779 Y131.465 E21.57191
G1 X145.182 Y132.662 E21.59694
G1 X143.704 Y132.992 E21.61593
G1 X89.347 Y132.994 E22.29759
G1 X88.073 Y132.703 E22.31398
G1 X86.406 Y131.704 E22.33835
G1 X85.404 Y130.148 E22.36156
G1 X84.92 Y128.631 E22.38152
G1 X84.922 Y86.629 E22.90824
G1 X85.319 Y84.875 E22.9308
G1 X86.381 Y83.468 E22.9529
G0 F15000 X86.672 Y83.746
G1 F1350 X87.693 Y82.885 E22.96965
G1 X89.259 Y82.407 E22.99018
G1 X143.779 Y82.408 E23.67389
G1 X144.976 Y82.785 E23.68962
G1 X146.088 Y83.43 E23.70574
G1 X147.167 Y84.826 E23.72787
G1 X147.68 Y86.429 E23.74898
G1 X147.678 Y128.327 E24.27439
G1 X147.363 Y129.722 E24.29233
G1 X146.477 Y131.192 E24.31385
G1 X145.01 Y132.291 E24.33684
G1 X143.662 Y132.592 E24.35416
G1 X89.392 Y132.594 E25.03472
G1 X88.224 Y132.327 E25.04975
G1 X86.692 Y131.409 E25.07215
G1 X85.769 Y129.976 E25.09352
G1 X85.32 Y128.569 E25.11204
G1 X85.322 Y86.673 E25.63743
G1 X85.69 Y85.047 E25.65834
G1 X86.672 Y83.746 E25.67878
G0 F15000 X86.963 Y84.024
G1 F1350 X87.888 Y83.244 E25.69396
G1 X89.32 Y82.807 E25.71273
G1 X143.716 Y82.808 E26.39488
G1 X144.815 Y83.154 E26.40933
G1 X145.82 Y83.737 E26.4239
G1 X146.807 Y85.014 E26.44414
G1 X147.28 Y86.492 E26.4636
G1 X147.278 Y128.283 E26.98767
G1 X146.988 Y129.568 E27.00419
G1 X146.173 Y130.92 E27.02399
G1 X144.838 Y131.92 E27.0449
G1 X143.62 Y132.192 E27.06055
G1 X89.437 Y132.194 E27.74003
G1 X88.375 Y131.951 E27.75369
G1 X86.978 Y131.114 E27.77411
G1 X86.134 Y129.804 E27.79366
G1 X85.72 Y128.507 E27.81073
G1 X85.722 Y86.717 E28.33479
G1 X86.061 Y85.219 E28.35405
G1 X86.963 Y84.024 E28.37283
G0 F15000 X87.254 Y84.302
G1 F1350 X88.083 Y83.603 E28.38643
G1 X89.381 Y83.207 E28.40344
G1 X143.653 Y83.208 E29.08404
G1 X144.654 Y83.523 E29.0972
G1 X145.552 Y84.044 E29.11021
G1 X146.447 Y85.202 E29.12857
G1 X146.88 Y86.555 E29.14638
G1 X146.878 Y128.239 E29.66912
G1 X146.613 Y129.414 E29.68422
G1 X145.869 Y130.648 E29.70229
G1 X144.666 Y131.549 E29.72114
G1 X143.578 Y131.792 E29.73512
G1 X89.482 Y131.794 E30.4135
G1 X88.526 Y131.575 E30.4258
G1 X87.262 Y130.818 E30.44428
G1 X86.5 Y129.634 E30.46194
G1 X86.12 Y128.445 E30.47759
G1 X86.122 Y86.761 E31.00032
G1 X86.432 Y85.391 E31.01794
G1 X87.254 Y84.302 E31.03505
G0 F15000 X87.545 Y84.58
G1 F1350 X88.278 Y83.962 E31.04707
G1 X89.442 Y83.607 E31.06233
G1 X143.59 Y83.608 E31.74137
G1 X144.493 Y83.892 E31.75324
G1 X145.284 Y84.351 E31.76471
G1 X146.087 Y85.39 E31.78117
G1 X146.48 Y86.618 E31.79734
G1 X146.478 Y128.195 E32.31873
G1 X146.238 Y129.26 E32.33242
G1 X145.565 Y130.376 E32.34877
G1 X144.494 Y131.178 E32.36555
G1 X143.536 Y131.392 E32.37785
G1 X89.527 Y131.394 E33.05515
G1 X88.676 Y131.199 E33.0661
G1 X87.547 Y130.523 E33.0826
G1 X86.866 Y129.464 E33.09839
G1 X86.52 Y128.382 E33.11263
G1 X86.522 Y86.805 E33.63402
G1 X86.803 Y85.563 E33.64999
G1 X87.545 Y84.58 E33.66544
G0 F15000 X87.836 Y84.858
G1 F1350 X88.473 Y84.321 E33.67589
G1 X89.503 Y84.007 E33.68939
G1 X143.527 Y84.008 E34.36687
G1 X144.332 Y84.261 E34.37745
G1 X145.016 Y84.658 E34.38737
G1 X145.727 Y85.578 E34.40195
G1 X146.08 Y86.681 E34.41647
G1 X146.078 Y128.151 E34.93652
G1 X145.863 Y129.106 E34.9488
G1 X145.261 Y130.104 E34.96341
G1 X144.322 Y130.807 E34.97812
G1 X143.494 Y130.992 E34.98876
G1 X89.572 Y130.994 E35.66497
G1 X88.827 Y130.823 E35.67455
G1 X87.832 Y130.227 E35.6891
G1 X87.232 Y129.294 E35.70301
G1 X86.92 Y128.319 E35.71584
G1 X86.922 Y86.849 E36.23589
G1 X87.174 Y85.735 E36.25022
G1 X87.836 Y84.858 E36.264
G0 F15000 X88.127 Y85.136
G1 F1350 X88.668 Y84.68 E36.27287
G1 X89.564 Y84.407 E36.28461
G1 X143.464 Y84.408 E36.96054
G1 X144.171 Y84.63 E36.96983
G1 X144.746 Y84.964 E36.97817
G1 X145.368 Y85.769 E36.99093
G1 X145.68 Y86.744 E37.00377
G1 X145.678 Y128.107 E37.52248
G1 X145.487 Y128.955 E37.53338
G1 X144.959 Y129.83 E37.54619
G1 X144.15 Y130.436 E37.55887
G1 X143.452 Y130.592 E37.56784
G1 X89.618 Y130.594 E38.24293
G1 X88.978 Y130.447 E38.25117
G1 X88.117 Y129.931 E38.26376
G1 X87.598 Y129.124 E38.27579
G1 X87.32 Y128.256 E38.28722
G1 X87.322 Y86.893 E38.80593
G1 X87.545 Y85.907 E38.8186
G1 X88.127 Y85.136 E38.83072
G0 F15000 X88.418 Y85.414
G1 F1350 X88.863 Y85.039 E38.83802
G1 X89.625 Y84.807 E38.848
G1 X143.401 Y84.808 E39.52238
G1 X144.01 Y84.999 E39.53038
G1 X144.476 Y85.27 E39.53714
G1 X145.009 Y85.96 E39.54807
G1 X145.28 Y86.807 E39.55923
G1 X145.278 Y128.063 E40.07659
G1 X145.111 Y128.804 E40.08612
G1 X144.657 Y129.556 E40.09713
G1 X143.978 Y130.065 E40.10777
G1 X143.41 Y130.192 E40.11507
G1 X89.664 Y130.194 E40.78907
G1 X89.129 Y130.071 E40.79595
G1 X88.402 Y129.635 E40.80658
G1 X87.964 Y128.954 E40.81674
G1 X87.72 Y128.193 E40.82676
G1 X87.722 Y86.937 E41.34412
G1 X87.916 Y86.079 E41.35515
G1 X88.418 Y85.414 E41.3656
G0 F15000 X88.737 Y85.655
G1 F1350 X89.056 Y85.399 E41.37073
G1 X89.686 Y85.207 E41.37899
G1 X143.338 Y85.208 E42.05181
G1 X143.89 Y85.381 E42.05906
G1 X144.208 Y85.577 E42.06375
G1 X144.649 Y86.149 E42.0728
G1 X144.88 Y86.87 E42.0823
G1 X144.878 Y128.019 E42.59832
G1 X144.735 Y128.653 E42.60647
G1 X144.355 Y129.282 E42.61569
G1 X143.806 Y129.694 E42.6243
G1 X143.41 Y129.792 E42.62941
G1 X89.664 Y129.794 E43.30341
G1 X89.335 Y129.728 E43.30761
G1 X88.687 Y129.339 E43.31709
G1 X88.33 Y128.784 E43.32537
G1 X88.12 Y128.13 E43.33398
G1 X88.122 Y86.981 E43.85001
G1 X88.287 Y86.251 E43.85939
G1 X88.737 Y85.655 E43.86876
G0 F15000 X89.375 Y86.137
G1 F1350 X89.746 Y86.007 E43.87369
G1 X143.275 Y86.008 E44.54496
G1 X143.632 Y86.139 E44.54973
G1 X143.908 Y86.46 E44.55504
G1 X144.08 Y86.996 E44.5621
G1 X144.078 Y127.975 E45.07599
G1 X143.971 Y128.405 E45.08154
G1 X143.719 Y128.789 E45.0873
G1 X143.41 Y128.992 E45.09194
G1 X89.664 Y128.994 E45.76594
G1 X89.291 Y128.803 E45.77119
G1 X89.092 Y128.54 E45.77533
G1 X88.92 Y128.004 E45.78239
G1 X88.922 Y87.025 E46.29628
G1 X89.029 Y86.595 E46.30183
G1 X89.375 Y86.137 E46.30903
G0 F15000 X89.243 Y85.76
G1 F1350 X89.746 Y85.607 E46.31563
G1 X143.275 Y85.608 E46.9869
G1 X143.77 Y85.763 E46.9934
G1 X143.935 Y85.878 E46.99593
G1 X144.289 Y86.338 E47.00321
G1 X144.48 Y86.933 E47.01104
G1 X144.478 Y127.975 E47.52572
G1 X144.359 Y128.502 E47.5325
G1 X144.053 Y129.008 E47.53991
G1 X143.63 Y129.326 E47.54655
G1 X143.41 Y129.392 E47.54943
G1 X89.664 Y129.394 E48.22343
G1 X89.482 Y129.35 E48.22577
G1 X88.972 Y129.044 E48.23323
G1 X88.711 Y128.662 E48.23903
G1 X88.52 Y128.067 E48.24687
G1 X88.522 Y87.025 E48.76155
G1 X88.658 Y86.423 E48.76929
G1 X89.056 Y85.896 E48.77757
G1 X89.243 Y85.76 E48.78047
M204 S429
G1 F1500 E42.28047
;MESH:flat_case_6mm_bottom.stl
G0 F15000 X89.537 Y87.11
G0 X89.715 Y128.592
;TYPE:WALL-OUTER
G1 F1500 E48.78047
G1 F1350 X143.298 Y128.592 E49.51962
G1 X143.407 Y128.53 E49.52135
G1 X143.616 Y128.213 E49.52659
G1 X143.68 Y127.911 E49.53085
G1 X143.68 Y87.06 E50.09436
G1 X143.537 Y86.619 E50.10076
G1 X143.43 Y86.49 E50.10307
G1 X143.232 Y86.408 E50.10602
G1 X89.782 Y86.405 E50.84334
G1 X89.582 Y86.484 E50.8463
G1 X89.384 Y86.787 E50.85129
G1 X89.317 Y87.087 E50.85553
G1 X89.32 Y127.941 E51.41909
G1 X89.459 Y128.377 E51.4254
G1 X89.715 Y128.592 E51.43002
M204 S1000
G0 F15000 X89.915 Y128.592
G1 F1500 E44.93002
G0 F15000 X89.915 Y128.293
G0 X143.151 Y128.192
;TYPE:WALL-INNER
G1 F1500 E51.43002
G1 F1350 X143.28 Y127.869 E51.43416
G1 X143.28 Y87.123 E51.91958
G1 X143.179 Y86.808 E51.92352
G1 X89.848 Y86.81 E52.55887
G1 X89.717 Y87.131 E52.563
G1 X89.72 Y127.879 E53.04845
G1 X89.826 Y128.192 E53.05239
G1 X143.151 Y128.192 E53.68766
G0 F15000 X142.94 Y127.852
;TYPE:SKIN
G1 F1350 X142.94 Y87.148 E54.14834
G1 X90.057 Y87.145 E54.74685
G1 X90.06 Y127.852 E55.20756
G1 X142.94 Y127.852 E55.80604
G1 F1500 E49.30604
G0 F15000 X143.24 Y127.852
G0 X143.179 Y87.139
G0 X142.221 Y86.848
G0 X142.22 Y87.348
G1 F1500 E55.80604
G1 F1350 X142.74 Y87.869 E55.81437
G0 F15000 X142.74 Y88.434
G1 F1350 X141.654 Y87.348 E55.83175
G0 F15000 X141.088 Y87.348
G1 F1350 X142.74 Y89 E55.8582
G0 F15000 X142.74 Y89.566
G1 F1350 X140.523 Y87.348 E55.89369
G0 F15000 X139.957 Y87.348
G1 F1350 X142.74 Y90.131 E55.93823
G0 F15000 X142.74 Y90.697
G1 F1350 X139.391 Y87.348 E55.99183
G0 F15000 X138.826 Y87.348
G1 F1350 X142.74 Y91.263 E56.05449
G0 F15000 X142.74 Y91.828
G1 F1350 X138.26 Y87.348 E56.12619
G0 F15000 X137.694 Y87.348
G1 F1350 X142.74 Y92.394 E56.20696
G0 F15000 X142.74 Y92.96
G1 F1350 X137.129 Y87.348 E56.29677
G0 F15000 X136.563 Y87.348
G1 F1350 X142.74 Y93.525 E56.39564
G0 F15000 X142.74 Y94.091
G1 F1350 X135.997 Y87.348 E56.50357
G0 F15000 X135.431 Y87.348
G1 F1350 X142.74 Y94.657 E56.62055
G0 F15000 X142.74 Y95.223
G1 F1350 X134.866 Y87.348 E56.74659
G0 F15000 X134.3 Y87.348
G1 F1350 X142.74 Y95.788 E56.88168
G0 F15000 X142.74 Y96.354
G1 F1350 X133.734 Y87.348 E57.02582
G0 F15000 X133.169 Y87.348
G1 F1350 X142.74 Y96.92 E57.17902
G0 F15000 X142.74 Y97.485
G1 F1350 X132.603 Y87.348 E57.34127
G0 F15000 X132.037 Y87.348
G1 F1350 X142.74 Y98.051 E57.51258
G0 F15000 X142.74 Y98.617
G1 F1350 X131.472 Y87.348 E57.69294
G0 F15000 X130.906 Y87.348
G1 F1350 X142.74 Y99.182 E57.88235
G0 F15000 X142.74 Y99.748
G1 F1350 X130.34 Y87.348 E58.08082
G0 F15000 X129.775 Y87.348
G1 F1350 X142.74 Y100.314 E58.28834
G0 F15000 X142.74 Y100.879
G1 F1350 X129.209 Y87.348 E58.50491
G0 F15000 X128.643 Y87.348
G1 F1350 X142.74 Y101.445 E58.73054
G0 F15000 X142.74 Y102.011
G1 F1350 X128.078 Y87.348 E58.96522
G0 F15000 X127.512 Y87.348
G1 F1350 X142.74 Y102.576 E59.20896
G0 F15000 X142.74 Y103.142
G1 F1350 X126.946 Y87.348 E59.46175
G0 F15000 X126.38 Y87.348
G1 F1350 X142.74 Y103.708 E59.7236
G0 F15000 X142.74 Y104.274
G1 F1350 X125.815 Y87.348 E59.9945
G0 F15000 X125.249 Y87.348
G1 F1350 X142.74 Y104.839 E60.27446
G0 F15000 X142.74 Y105.405
G1 F1350 X124.683 Y87.347 E60.56348
G0 F15000 X124.117 Y87.347
G1 F1350 X142.74 Y105.971 E60.86156
G0 F15000 X142.74 Y106.536
G1 F1350 X123.551 Y87.347 E61.16869
G0 F15000 X122.986 Y87.347
G1 F1350 X142.74 Y107.102 E61.48488
G0 F15000 X142.74 Y107.668
G1 F1350 X122.42 Y87.347 E61.81012
G0 F15000 X121.854 Y87.347
G1 F1350 X142.74 Y108.233 E62.14441
G0 F15000 X142.74 Y108.799
G1 F1350 X121.289 Y87.347 E62.48776
G0 F15000 X120.723 Y87.347
G1 F1350 X142.74 Y109.365 E62.84016
G0 F15000 X142.74 Y109.93
G1 F1350 X120.157 Y87.347 E63.20162
G0 F15000 X119.592 Y87.347
G1 F1350 X142.74 Y110.496 E63.57212
G0 F15000 X142.74 Y111.062
G1 F1350 X119.026 Y87.347 E63.95169
G0 F15000 X118.46 Y87.347
G1 F1350 X142.74 Y111.627 E64.3403
G0 F15000 X142.74 Y112.193
G1 F1350 X117.894 Y87.347 E64.73798
G0 F15000 X117.329 Y87.347
